!!!!SEGMENT: pl-cz--iii-352--002_koperski-maksymilian--ave-regina.krn
!!!cenid: 18xx:905
!!!COM: Koperski, Maksymilian
!!!COM-rismID: pe30060120
!!!CDT: 1812-1886
!!!CNT: Polish
!!!OTL: Ave Regina
!!!PDT: 1836
!!!AGN: Sacred
!!!YEC: Copyright 2022 Narodowy Instytut Fryderyka Chopina (https://polishscores.org)
!!!YEM: License CC-BY-4.0 (https://creativecommons.org/licenses/by/4.0)
!!!SMS-siglum: PL-CZ
!!!SMS-shelfmark: III-352
!!!SMS-shelfwork: 002 W
!!!SMS-variant:
!!!SMS-altvar:
!!!NIFC-rismSourceID: 300000596
!!!NIFC-rismChildID: 300000598
!!!NIFC-islandoraID: pl-cz:37915
!!!URL-pdf-islandora: https://repozytorium.nifc.pl/islandora/object/pl-cz%3A37915/datastream/PDF/view
!!!URL-scan: https://polish.musicsources.pl/pl/lokalizacje/galeria/rekopisy/6912/1 @EN{Scan on Polish Music Sources Website} @PL{Skany w portalu Dziedzictwo Muzyki Polskiej w otwartym dostępie}
!!!IIIF:
!!!ONB-nifc: UWAGA: Salve Regina i Ave Regina to osobne utwory
!!!AIN: 2 cor 1 organ 1 soprn 1 tromb 2 viola 2 violn
!!!key: G
**kern	**fba	**dynam	**kern	**dynam	**kern	**dynam	**kern	**dynam	**kern	**dynam	**kern	**text	**kern	**dynam	**kern	**dynam	**kern	**dynam
*group4	*	*	*group3	*	*group3	*	*group3	*	*group3	*	*group2	*	*group1	*	*group1	*	*group1	*
*part9	*	*	*part8	*	*part7	*	*part6	*	*part5	*	*part4	*	*part3	*	*part2	*	*part1	*
*staff9	*	*	*staff8	*	*staff7	*	*staff6	*	*staff5	*	*staff4	*	*staff3	*	*staff2	*	*staff1	*
*I"Organo.	*	*	*I"Alto Viola Duo	*	*I"Alto Viola Duo	*	*I"Violino 2ecundo.	*	*I"Violino 1mo	*	*I"Canto.	*	*I"Puzon.	*	*I"Cornu 2do in G.	*	*I"Cornu 1mo in G.	*
*I'org	*	*	*I'vla 2	*	*I'vla 1	*	*I'vl 2	*	*I'vl 1	*	*I'S	*	*I'trb	*	*I'cor 2	*	*I'cor 1	*
*Iorgan	*	*	*Iviola	*	*Iviola	*	*Ivioln	*	*Ivioln	*	*Isoprn	*	*Itromb	*	*Icor	*	*Icor	*
*ICklav	*	*	*ICstr	*	*ICstr	*	*ICstr	*	*ICstr	*	*ICvox	*	*ICbras	*	*ICbras	*	*ICbras	*
*clefF4	*	*	*clefC3	*	*clefC3	*	*clefG2	*	*clefG2	*	*clefC1	*	*clefF4	*	*clefG2	*	*clefG2	*
*	*	*	*	*	*	*	*	*	*	*	*	*	*	*	*ITrd3c5	*	*ITrd3c5	*
*k[f#]	*	*	*k[f#]	*	*k[f#]	*	*k[f#]	*	*k[f#]	*	*k[f#]	*	*k[f#]	*	*k[f#]	*	*k[f#]	*
*G:	*	*	*G:	*	*G:	*	*G:	*	*G:	*	*G:	*	*G:	*	*	*	*	*
*M2/4	*	*	*M2/4	*	*M2/4	*	*M2/4	*	*M2/4	*	*M2/4	*	*M2/4	*	*M2/4	*	*M2/4	*
*	*	*	*	*	*	*	*	*	*	*below	*	*	*	*	*	*	*	*
!	!	!	!	!	!	!	!	!	!	!	!LO:TX:t=No 2	!	!	!	!	!	!	!
!	!	!	!	!	!	!	!	!	!LO:TX:a:B:t=Andante	!	!LO:TX:a:B:t=Andante	!	!LO:TX:t=No 2	!	!	!	!	!
!LO:TX:a:B:t=Andante	!	!	!LO:TX:a:B:t=Andante	!	!LO:TX:a:B:t=Andante	!	!LO:TX:a:B:t=Andante	!	!LO:TX:a:i:t=Dolce	!LO:HP:b:t=Cres	!LO:TX:a:t=Solo	!	!LO:TX:a:B:t=Andante	!	!LO:TX:a:B:t=Andante	!	!LO:TX:a:B:t=Andante	!
8r	.	.	8r	.	8r	.	8r	.	16d/LL	<	8r	.	8r	.	8r	.	8r	.
.	.	.	.	.	.	.	.	.	16g/JJ	.	.	.	.	.	.	.	.	.
=1	=1	=1	=1	=1	=1	=1	=1	=1	=1	=1	=1	=1	=1	=1	=1	=1	=1	=1
!	!	!	!	!LO:DY:b:rj:Bi:t=p.	!	!LO:DY:b:Bi:t=p.	!	!LO:DY:b:rj:Bi:t=p.	!	!	!LO:TX:a:t=14	!	!	!	!	!	!	!
4G\	x x 3	p	16r	p	16r	p	8.g/L	p	8.b^\L	.	2r	.	4GG/	p	8r	.	8r	p
.	.	.	16dLL 16B/	.	16dLL 16B/	.	.	.	.	.	.	.	.	.	.	.	.	.
.	.	.	16d 16B/	.	16d 16B/	.	.	.	.	.	.	.	.	.	8B/L	.	8g\L	.
.	.	.	16dJJ 16B/	.	16dJJ 16B/	.	16d/Jk	.	16a\Jk	.	.	.	.	.	.	.	.	.
!	!	!	!LO:N:vis=8	!	!	!	!	!	!LO:N:vis=8.	!	!	!	!	!	!	!	!	!
4r	.	.	16r	.	16r	.	8B/	.	8g\L	.	.	.	4r	.	8B/J	.	8g\J	.
*	*	*	*rep	*	*rep	*	*	*	*	*	*	*	*	*	*	*	*	*
.	.	.	16dLL 16B/	.	16dLL 16B/	.	.	.	.	.	.	.	.	.	.	.	.	.
.	.	.	.	.	.	.	.	.	16qqa/LL	.	.	.	.	.	.	.	.	.
.	.	.	.	.	.	.	.	.	16qqg/JJ	.	.	.	.	.	.	.	.	.
.	.	.	16d 16B/	.	16d 16B/	.	8r	.	(32f#\LL	.	.	.	.	.	8r	.	8r	.
.	.	.	.	.	.	.	.	.	32g\)	.	.	.	.	.	.	.	.	.
.	.	.	16dJJ 16B/	.	16dJJ 16B/	.	.	.	32a'\	.	.	.	.	.	.	.	.	.
.	.	.	.	.	.	.	.	.	32b'\JJJ	.	.	.	.	.	.	.	.	.
*	*	*	*Xrep	*	*Xrep	*	*	*	*	*	*	*	*	*	*	*	*	*
=2	=2	=2	=2	=2	=2	=2	=2	=2	=2	=2	=2	=2	=2	=2	=2	=2	=2	=2
4D\	x 7 5	.	16r	.	16r	.	8.a/L	.	8.cc^\L	.	2r	.	4D\	.	8r	.	8r	.
.	.	.	16dLL 16c/	.	16dLL 16c/	.	.	.	.	.	.	.	.	.	.	.	.	.
.	.	.	16d 16c/	.	16d 16c/	.	.	.	.	.	.	.	.	.	8d/L	.	8a\L	.
.	.	.	16dJJ 16c/	.	16dJJ 16c/	.	16g/Jk	.	16b\Jk	.	.	.	.	.	.	.	.	.
!	!	!	!LO:N:vis=8	!	!	!	!	!	!	!	!	!	!	!	!	!	!	!
4r	.	.	16r	.	16r	.	8f#/L	.	8aW\L	.	.	.	4r	.	8d/J	.	8a\J	.
*	*	*	*rep	*	*rep	*	*	*	*	*	*	*	*	*	*	*	*	*
.	.	.	16dLL 16c/	.	16dLL 16c/	.	.	.	.	.	.	.	.	.	.	.	.	.
.	.	.	16d 16c/	.	16d 16c/	.	16g/L	.	16b\L	.	.	.	.	.	8r	.	8r	.
.	.	.	16dJJ 16c/	.	16dJJ 16c/	.	16a/JJ	.	16cc\JJ	.	.	.	.	.	.	.	.	.
*	*	*	*Xrep	*	*Xrep	*	*	*	*	*	*	*	*	*	*	*	*	*
=3	=3	=3	=3	=3	=3	=3	=3	=3	=3	=3	=3	=3	=3	=3	=3	=3	=3	=3
4G\	x 5 3	.	8d 8B\	.	8d 8B\	.	8b\L	.	8dd^\L	.	2r	.	4GG/	.	4g\	.	4b\	.
.	.	.	8r	.	8r	.	8e\	.	16b\L	.	.	.	.	.	.	.	.	.
.	.	.	.	.	.	.	.	.	16g#X\JJ	.	.	.	.	.	.	.	.	.
8C\L	x 6_ 3_	.	8e 8c\	.	8e 8c\	.	8cc\	.	8aw\L	.	.	.	8C\L	.	4r	.	4r	.
!	!	!	!	!	!	!	!	!	!LO:SIC:v:s=16cc#\L	!	!	!	!	!	!	!	!	!
8C\J	.	.	8r	.	8r	.	8a\J	.	16cc\L	.	.	.	8C#X\J	.	.	.	.	.
.	.	.	.	.	.	.	.	.	16ee\JJ	.	.	.	.	.	.	.	.	.
=4	=4	=4	=4	=4	=4	=4	=4	=4	=4	=4	=4	=4	=4	=4	=4	=4	=4	=4
4D\	x x 4	.	8r	.	8r	.	8r	.	4gw/	.	2r	.	4D\	.	8r	.	8r	.
!	!	!	!	!	!	!	!	!	!	!	!	!	!	!	!LO:TX:t=P:problem=mixed beam	!	!	!
.	.	.	8dL 8B\	.	8dL 8B\	.	8B/L	.	.	.	.	.	.	.	8g\L	.	8b\L	.
8DD/	x x 3	.	8dJ 8A\	.	8dJ 8A\	.	8A/J	.	16f#/	.	.	.	8DD/	.	8d/J	.	8a\J	.
.	.	.	.	.	.	.	.	.	32r	.	.	.	.	.	.	.	.	.
!	!	!	!	!	!	!	!	!	!	!LO:DY:b:Bi:t=for	!	!	!	!	!	!	!	!
.	.	.	.	.	.	.	.	.	32dd\	f	.	.	.	.	.	.	.	.
!	!	!	!	!	!	!	!	!	!	!LO:HP:a	!	!	!	!	!	!	!	!
8r	.	.	(32e\LLL	.	(32e\LLL	.	8r	.	32ee\LLL	<	.	.	8r	.	8r	.	8r	.
.	.	.	32f#\	.	32f#\	.	.	.	32ff#\	.	.	.	.	.	.	.	.	.
.	.	.	32g\	.	32g\	.	.	.	32gg\	.	.	.	.	.	.	.	.	.
.	.	.	32a\JJJ)	.	32a\JJJ)	.	.	.	32aa\JJJ	[	.	.	.	.	.	.	.	.
!	!	!	!	!	!	!	!	!	!LO:LB:g=original	!	!	!	!	!	!	!	!	!
=5	=5	=5	=5	=5	=5	=5	=5	=5	=5	=5	=5	=5	=5	=5	=5	=5	=5	=5
!LO:TX:t=P:problem=mixed beam	!	!	!	!	!	!	!	!LO:DY:b:rj:Bi:t=fo	!	!	!	!	!LO:TX:t=P:problem=mixed beam	!	!	!	!	!
8GG/L	x x 3_	.	8.b\L	.	8.b\L	.	16G/LL	f	8.bb\L	.	2r	.	8GG/L	.	8.g\L	.	8.b\L	.
.	.	.	.	.	.	.	16d 16B/	.	.	.	.	.	.	.	.	.	.	.
8G\	.	.	.	.	.	.	16d 16B/	.	.	.	.	.	8G\	.	.	.	.	.
.	.	.	(16a\Jk	.	16a\Jk	.	16dJJ 16B/	.	16aa\Jk	.	.	.	.	.	16d\Jk	.	16a\Jk	.
*	*	*	*	*	*	*	*rep	*	*	*	*	*	*	*	*	*	*	*
8GG/J	.	.	16g\LL	.	16g\LL	.	16G/LL	.	16gg'\LL	.	.	.	8GG/J	.	8B/	.	8g\	.
.	.	.	16gw\	.	16gw\	.	16d 16B/	.	16gg'\JJ	.	.	.	.	.	.	.	.	.
8r	x x x	.	16a\	.	16a\	.	16d 16B/	.	32ff#\LLL	.	.	.	8r	.	8r	.	8r	.
.	.	.	.	.	.	.	.	.	32gg\	.	.	.	.	.	.	.	.	.
.	.	.	16b\JJ)	.	16b\JJ	.	16dJJ 16B/	.	32aa\	.	.	.	.	.	.	.	.	.
.	.	.	.	.	.	.	.	.	32bb\JJJ	.	.	.	.	.	.	.	.	.
*	*	*	*	*	*	*	*Xrep	*	*	*	*	*	*	*	*	*	*	*
!	!	!	!	!	!LO:LB:g=original	!	!	!	!	!	!	!	!	!	!	!	!	!
=6	=6	=6	=6	=6	=6	=6	=6	=6	=6	=6	=6	=6	=6	=6	=6	=6	=6	=6
!	!	!	!	!	!	!	!	!	!	!	!	!	!LO:TX:t=P:problem=mixed beam	!	!	!	!	!
8D\L	x 7_ 5_	.	8.cc\L	.	8.cc\L	.	16A/LL	.	8.ccc\L	.	2r	.	8DD/L	.	8.a\L	.	8.cc\L	.
.	.	.	.	.	.	.	16d 16c/	.	.	.	.	.	.	.	.	.	.	.
8d\	.	.	.	.	.	.	16d 16c/	.	.	.	.	.	8D\	.	.	.	.	.
.	.	.	16b\Jk	.	16b\Jk	.	16dJJ 16c/	.	16bb\Jk	.	.	.	.	.	16g\Jk	.	16b\Jk	.
*	*	*	*	*	*	*	*rep	*	*	*	*	*	*	*	*	*	*	*
8D\J	.	.	16a\LL	.	16a\LL	.	16A/LL	.	16aa\LL	.	.	.	8DD/J	.	8d/	.	8a\	.
.	.	.	16aW\	.	16aW\	.	16d 16c/	.	16aaW\	.	.	.	.	.	.	.	.	.
8r	x x x	.	16b\	.	16b\	.	16d 16c/	.	16bb\	.	.	.	8r	.	8r	.	8r	.
!	!	!	!LO:TX:a:t=x	!	!	!	!	!	!	!	!	!	!	!	!	!	!	!
.	.	.	16cc\JJ	.	16cc\JJ	.	16dJJ 16c/	.	16ccc\JJ	.	.	.	.	.	.	.	.	.
*	*	*	*	*	*	*	*Xrep	*	*	*	*	*	*	*	*	*	*	*
!	!	!	!	!	!	!	!	!	!	!	!	!	!	!	!LO:LB:g=original	!	!LO:LB:g=original	!
=7	=7	=7	=7	=7	=7	=7	=7	=7	=7	=7	=7	=7	=7	=7	=7	=7	=7	=7
!	!	!	!LO:TX:t=P:problem=takt dopisany między systemami 	!	!	!	!	!	!	!	!	!	!	!	!	!	!	!
!LO:TX:t=P:problem=mixed beam	!	!	!LO:TX:a:t=x	!	!	!	!	!	!	!	!	!	!	!LO:DY:b:rj:Bi:t=fo	!	!	!	!
8G\L	x 5 3	.	8dd\L	.	8dd\L	.	8gL 8B/	.	16ddd\LL	.	2r	.	8GG/L	f	8g\	.	8b\	.
.	.	.	.	.	.	.	.	.	16bb\JJ	.	.	.	.	.	.	.	.	.
*	*	*	*	*	*	*	*	*	*Xtuplet	*	*	*	*	*	*	*	*	*
8c\	x 6 3	.	8cc 8f#\	.	8cc 8f#\	.	8a 8c/	.	24aa\LL	.	.	.	8C/	.	8r	.	8r	.
.	.	.	.	.	.	.	.	.	24eee\	.	.	.	.	.	.	.	.	.
.	.	.	.	.	.	.	.	.	24ccc\JJ	.	.	.	.	.	.	.	.	.
8d\	x 6 4	.	8b 8g\	.	8b 8g\	.	8b 8d/	.	8bb\L	.	.	.	8D/	.	8g\L	.	8b\L	.
!	!	!	!LO:TX:a:t=2	!	!	!	!	!	!	!	!	!	!	!	!	!	!	!
8D/J	x 5 3	.	8aJ 8f#\	.	8aJ 8f#\	.	8aJ 8c/	.	8aa\J	.	.	.	8DD/J	.	8d\J	.	8a\J	.
!LO:LB:g=original	!	!	!LO:LB:g=original	!	!	!	!LO:LB:g=original	!	!	!	!	!	!	!	!	!	!	!
=8	=8	=8	=8	=8	=8	=8	=8	=8	=8	=8	=8	=8	=8	=8	=8	=8	=8	=8
!	!	!	!LO:TX:a:t=2	!LO:DY:b:Bi:t=for	!	!LO:DY:rj	!	!	!	!	!	!	!	!LO:DY:rj	!	!	!	!
8G\	x x 3	.	16gLL 16B\	f	16gLL 16B^\	f	16gLL 16B/	.	4gg\	.	2r	.	8GG/	p	8B/	.	8g\	.
.	.	.	16g 16B\	.	16g 16B\	.	16d 16B/	.	.	.	.	.	.	.	.	.	.	.
8r	.	.	16g 16B\	.	16g 16B\	.	16d 16B/	.	.	.	.	.	8r	.	8r	.	8r	.
.	.	.	16gJJ 16B\	.	16gJJ 16B\	.	16dJJ 16B/	.	.	.	.	.	.	.	.	.	.	.
*	*	*	*rep	*	*rep	*	*tremolo	*	*	*	*	*	*	*	*	*	*	*
!	!	!	!	!	!	!	!LO:TX:t=P:tremolo-dots:problem	!	!	!	!	!	!	!	!	!	!	!
8G\	.	.	16gLL 16B\	.	16gLL 16B^\	.	16d 16B/LL	.	32r	.	.	.	8GG/	.	8B/	.	8g\	.
.	.	.	.	.	.	.	.	.	32bb'\LLL	.	.	.	.	.	.	.	.	.
.	.	.	16g 16B\	.	16g 16B\	.	16d 16B/	.	32aa'\	.	.	.	.	.	.	.	.	.
.	.	.	.	.	.	.	.	.	32gg\JJJ	.	.	.	.	.	.	.	.	.
8r	.	.	16g 16B\	.	16g 16B\	.	16d 16B/	.	(32ff#'\LLL	.	.	.	8r	.	8r	.	8r	.
.	.	.	.	.	.	.	.	.	32gg'\	.	.	.	.	.	.	.	.	.
.	.	.	16gJJ 16B\	.	16gJJ 16B\	.	16d 16B/JJ	.	32aa'\	.	.	.	.	.	.	.	.	.
.	.	.	.	.	.	.	.	.	32bb'\JJJ)	.	.	.	.	.	.	.	.	.
*	*	*	*Xrep	*	*Xrep	*	*Xtremolo	*	*	*	*	*	*	*	*	*	*	*
!	!	!	!	!	!	!	!	!	!LO:LB:g=original	!	!	!	!LO:LB:g=original	!	!	!	!	!
=9	=9	=9	=9	=9	=9	=9	=9	=9	=9	=9	=9	=9	=9	=9	=9	=9	=9	=9
*	*	*	*	*	*tremolo	*	*	*	*	*	*	*	*	*	*	*	*	*
!	!	!	!	!	!LO:TX:t=P:tremolo-dots:problem	!	!	!	!	!	!	!	!	!	!	!LO:DY:b:rj:Bi:t=fo	!	!LO:DY:b:Bi:t=fo
8D\	x 7 5	.	16f#LL 16A\	.	16f# 16A\LL	.	16dLL 16c/	.	16ccc'\LL	.	2r	.	8D\	.	8d/L	f	8a\L	f
.	.	.	16f# 16A\	.	16f# 16A\	.	16d 16c/	.	(32ccc\L	.	.	.	.	.	.	.	.	.
.	.	.	.	.	.	.	.	.	32bb\JJJ)	.	.	.	.	.	.	.	.	.
8r	.	.	16f# 16A\	.	16f# 16A\	.	16d 16c/	.	16aa'\LL	.	.	.	16r	.	8d/	.	8a\	.
.	.	.	16f#JJ 16A\	.	16f# 16A\JJ	.	16dJJ 16c/	.	(32aa\L	.	.	.	16D\	.	.	.	.	.
.	.	.	.	.	.	.	.	.	32gg\JJJ)	.	.	.	.	.	.	.	.	.
*	*	*	*rep	*	*	*	*tremolo	*	*	*	*	*	*	*	*	*	*	*
!	!	!LO:DY:b:rj:Bi:t=fo	!	!	!LO:TX:t=P:tremolo-dots:problem	!	!LO:TX:t=P:tremolo-dots:problem	!	!	!	!	!	!	!	!	!	!	!
8D\L	x 7_ 5_	f	16f#LL 16A\	.	16f# 16A\LL	.	16d 16c/LL	.	(32ff#\LLL	.	.	.	8F#\L	.	8d/	.	8a\	.
.	.	.	.	.	.	.	.	.	32gg\)	.	.	.	.	.	.	.	.	.
.	.	.	16f# 16A\	.	16f# 16A\	.	16d 16c/	.	32aa'\	.	.	.	.	.	.	.	.	.
.	.	.	.	.	.	.	.	.	32gg'\JJJ	.	.	.	.	.	.	.	.	.
8D\J	.	.	16f# 16A\	.	16f# 16A\	.	16d 16c/	.	(32ff#\LLL	.	.	.	8D\J	.	8d/J	.	8a\J	.
.	.	.	.	.	.	.	.	.	32dd\)	.	.	.	.	.	.	.	.	.
.	.	.	16f#JJ 16A\	.	16f# 16A\JJ	.	16d 16c/JJ	.	(32ee'\	.	.	.	.	.	.	.	.	.
.	.	.	.	.	.	.	.	.	32ff#'\JJJ)	.	.	.	.	.	.	.	.	.
*	*	*	*Xrep	*	*	*	*Xtremolo	*	*	*	*	*	*	*	*	*	*	*
=10	=10	=10	=10	=10	=10	=10	=10	=10	=10	=10	=10	=10	=10	=10	=10	=10	=10	=10
!	!	!	!	!	!LO:TX:t=P:tremolo-dots:problem	!	!	!	!	!	!	!	!	!	!	!LO:DY:rj	!	!
4G\	x x 3	.	16gLL 16B\	.	16g 16B\LL	.	16G/LL	.	4gg\	.	2r	.	4GG/	.	8g\	p	8b\	p
.	.	.	16g 16B\	.	16g 16B\	.	16d 16B/	.	.	.	.	.	.	.	.	.	.	.
.	.	.	16g 16B\	.	16g 16B\	.	16d 16B/	.	.	.	.	.	.	.	8r	.	8r	.
.	.	.	16gJJ 16B\	.	16g 16B\JJ	.	16dJJ 16B/	.	.	.	.	.	.	.	.	.	.	.
*	*	*	*rep	*	*	*	*tremolo	*	*	*	*	*	*	*	*	*	*	*
!	!	!	!	!	!LO:TX:t=P:tremolo-dots:problem	!	!LO:TX:t=P:tremolo-dots:problem	!	!	!	!	!	!	!	!	!	!	!
16r	.	.	16gLL 16B\	.	16g 16B\LL	.	16d 16B/LL	.	32r	p	.	.	4r	.	8d/	.	8g\	.
.	.	.	.	.	.	.	.	.	32bb\LLL	.	.	.	.	.	.	.	.	.
!	!	!LO:DY:b:Bi:t=for	!	!	!	!	!	!	!	!	!	!	!	!	!	!	!	!
16GG/LL	.	f	16g 16B\	.	16g 16B\	.	16d 16B/	.	32aa\	.	.	.	.	.	.	.	.	.
.	.	.	.	.	.	.	.	.	32gg\JJJ	.	.	.	.	.	.	.	.	.
16BB/	.	.	16g 16B\	.	16g 16B\	.	16d 16B/	.	32ff#\LLL	.	.	.	.	.	8r	.	8r	.
.	.	.	.	.	.	.	.	.	32gg\	.	.	.	.	.	.	.	.	.
16GG/JJ	.	.	16gJJ 16B\	.	16g 16B\JJ	.	16d 16B/JJ	.	32aa\	.	.	.	.	.	.	.	.	.
.	.	.	.	.	.	.	.	.	32bb\JJJ	.	.	.	.	.	.	.	.	.
*	*	*	*Xrep	*	*	*	*Xtremolo	*	*	*	*	*	*	*	*	*	*	*
=11	=11	=11	=11	=11	=11	=11	=11	=11	=11	=11	=11	=11	=11	=11	=11	=11	=11	=11
!	!	!	!	!	!	!	!	!	!LO:TX:t=P:problem=nieczytelna litera pod kreską	!	!	!	!	!	!	!	!	!
.	.	.	.	.	.	.	.	.	8qqaa/	.	.	.	.	.	.	.	.	.
!	!	!	!	!	!	!	!	!	!	!LO:DY:rj	!	!	!	!	!	!	!	!
8AA/	x 7 5	.	16eLL 16c#X\	.	16e 16c#X\LL	.	16gLL 16A/	.	16gg\LL	f	2r	.	8AA/	.	2r	.	2r	.
.	.	.	16e 16c#\	.	16e 16c#X\	.	16g 16A/	.	32gg\L	.	.	.	.	.	.	.	.	.
.	.	.	.	.	.	.	.	.	32ff#\JJJ	.	.	.	.	.	.	.	.	.
8r	.	.	16e 16c#\	.	16e 16c#X\	.	16g 16A/	.	16ee\LL	.	.	.	8r	.	.	.	.	.
.	.	.	16eJJ 16c#\	.	16e 16c#X\JJ	.	16gJJ 16A/	.	32ee\L	.	.	.	.	.	.	.	.	.
.	.	.	.	.	.	.	.	.	32dd\JJJ	.	.	.	.	.	.	.	.	.
*	*	*	*rep	*	*	*	*rep	*	*	*	*	*	*	*	*	*	*	*
!LO:SIC:v:s=8C#/	!	!	!	!	!	!	!	!	!	!	!	!	!	!	!	!	!	!
8C/	x 5 3	.	16eLL 16c#\	.	16e 16c#\LL	.	16gLL 16A/	.	(32cc#X\LLL	.	.	.	8C#X/	.	.	.	.	.
.	.	.	.	.	.	.	.	.	32dd\	.	.	.	.	.	.	.	.	.
.	.	.	16e 16c#\	.	16e 16c#\	.	16g 16A/	.	32ee\	.	.	.	.	.	.	.	.	.
.	.	.	.	.	.	.	.	.	32ff#\JJJ	.	.	.	.	.	.	.	.	.
8r	.	.	16e 16c#\	.	16e 16c#\	.	16g 16A/	.	16gg\LL)	.	.	.	8r	.	.	.	.	.
.	.	.	16eJJ 16c#\	.	16e 16c#\JJ	.	16gJJ 16A/	.	16cc#\JJ	.	.	.	.	.	.	.	.	.
*	*	*	*Xrep	*	*Xtremolo	*	*Xrep	*	*	*	*	*	*	*	*	*	*	*
!	!	!	!	!	!	!	!	!	!LO:LB:g=original	!	!	!	!	!	!	!	!	!
=12	=12	=12	=12	=12	=12||:	=12	=12	=12	=12	=12	=12	=12	=12	=12	=12	=12	=12	=12
!	!	!	!	!	!	!LO:DY:b:rj:Bi:t=p.	!	!	!	!	!	!	!	!	!	!	!	!
4D\	x x 3	.	16d/LL	p	16d\LL	p	(16f#/LL	.	8.dd\L	.	2r	.	4D^\	.	4d/	.	4d/	.
.	.	.	16A/	.	16A\	.	16A/)	.	.	.	.	.	.	.	.	.	.	.
.	.	.	16d/	.	16d\	.	(16f#/	.	.	.	.	.	.	.	.	.	.	.
.	.	.	16A/JJ	.	16A\JJ	.	16A/JJ)	.	16ff#\Jk	.	.	.	.	.	.	.	.	.
4A\	x x 3	.	16c#X/LL	.	16c#X\LL	.	16g/LL	.	16ee\LL	.	.	.	4r	.	4a\	.	4a\	.
.	.	.	16A/	.	16A\	.	16A/	.	16ff#\	.	.	.	.	.	.	.	.	.
.	.	.	16c#/	.	16c#\	.	16g/	.	16gg\	.	.	.	.	.	.	.	.	.
.	.	.	16A/JJ	.	16A\JJ	.	16A/JJ	.	16aa\JJ	.	.	.	.	.	.	.	.	.
=13	=13	=13	=13	=13	=13:||	=13	=13	=13	=13	=13	=13	=13	=13	=13	=13	=13	=13	=13
!	!	!	!	!	!LO:TX:t=P:problem=t. 13 zapisany repetycją	!LO:DY:b:rj:Bi:t=p.	!	!	!	!	!	!	!	!	!	!	!	!
4D\	x x 3	.	16d/LL	.	16d\LLyy	py	16f#/LL	.	8.ff#\L	.	2r	.	4D\	.	4d/	.	4d/	.
.	.	.	16A/	.	16A\yy	.	16A/	.	.	.	.	.	.	.	.	.	.	.
.	.	.	16d/	.	16d\yy	.	16f#/	.	.	.	.	.	.	.	.	.	.	.
.	.	.	16A/JJ	.	16A\JJyy	.	16A/JJ	.	16dd\Jk	.	.	.	.	.	.	.	.	.
!LO:SIC:v:s=8C#\L	!	!	!	!	!	!	!	!	!LO:TX:t=P:problem=# dopisany ołówkiem	!	!	!	!	!	!	!	!	!
!	!	!	!	!	!	!	!	!	!LO:SIC:v:s=16cc#X\LL	!	!	!	!	!	!	!	!	!
8C\L	x 6_ 5_	.	16c#X/LL	.	16c#X\LLyy	.	16g/LL	.	16cc\LL	.	.	.	4r	.	4a\	.	4a\	.
.	.	.	16A/	.	16A\yy	.	16A/	.	16dd\	.	.	.	.	.	.	.	.	.
8AA\J	.	.	16c#/	.	16c#\yy	.	16g/	.	16ee\	.	.	.	.	.	.	.	.	.
.	.	.	16A/JJ	.	16A\JJyy	.	16A/JJ	.	16ff#\JJ	.	.	.	.	.	.	.	.	.
=14	=14	=14	=14	=14	=14	=14	=14	=14	=14	=14	=14	=14	=14	=14	=14	=14	=14	=14
!	!	!	!LO:SIC:v:s=8F#/L	!	!LO:SIC:v:s=8F#/L	!	!	!	!LO:TX:t=P:problem=mixed beam	!LO:DY:b:Bi:t=p.	!	!	!	!	!	!	!	!
4D\	x x 3	.	8G/L	.	8G/L	.	8f#/L	.	8dd\L	p	2r	.	4DD/	.	4d/	.	4a\	.
!	!	!	!LO:SIC:v:s=8F#/	!	!LO:SIC:v:s=8F#/	!	!	!	!	!	!	!	!	!	!	!	!	!
.	.	.	8G/	.	8G/	.	8B/	.	8d/	.	.	.	.	.	.	.	.	.
4r	.	.	8A/	.	8A/	.	8c/	.	8e/	.	.	.	4r	.	4r	.	4r	.
.	.	.	8F#X/J	.	8F#X/J	.	8A/J	.	8f#/J	.	.	.	.	.	.	.	.	.
!	!	!	!LO:LB:g=original	!	!LO:LB:g=original	!	!LO:LB:g=original	!	!	!	!	!	!	!	!LO:LB:g=original	!	!	!
=15	=15	=15	=15||:	=15	=15-	=15-	=15	=15	=15	=15	=15	=15	=15	=15	=15	=15	=15	=15
!	!	!	!	!	!	!	!	!	!	!	!	!	!	!	!	!	!LO:TX:b:t=19	!
!	!	!	!	!	!	!	!	!	!	!	!	!	!LO:TX:a:t=19	!	!LO:TX:a:t=19.	!	!LO:TX:a:t=19	!
8GG/	.	.	16r	.	16r	p	16r	.	16r	.	4g\	A-	2r	.	2r	.	2r	.
.	.	.	16g\LL	.	16g\LL	.	16b\LL	.	16g/LL	.	.	.	.	.	.	.	.	.
8r	.	.	16g\	.	16g\	.	16b\	.	16g/	.	.	.	.	.	.	.	.	.
.	.	.	16g\JJ	.	16g\JJ	.	16b\JJ	.	16g/JJ	.	.	.	.	.	.	.	.	.
8BB/	x 6 3	.	16r	.	16r	.	16r	.	16r	.	8.gg\	-ve	.	.	.	.	.	.
*	*	*	*	*	*rep	*	*	*	*	*	*	*	*	*	*	*	*	*
.	.	.	16g\LL	.	16g\LL	.	16b\LL	.	16dd\LL	.	.	.	.	.	.	.	.	.
8r	.	.	16g\	.	16g\	.	16b\	.	16dd\	.	.	.	.	.	.	.	.	.
.	.	.	16g\JJ	.	16g\JJ	.	16b\JJ	.	16dd\JJ	.	16ff#\	Re-	.	.	.	.	.	.
*	*	*	*	*	*Xrep	*	*	*	*	*	*	*	*	*	*	*	*	*
!LO:LB:g=original	!	!	!	!	!	!	!	!	!	!	!	!	!	!	!	!	!	!
=16	=16	=16	=16	=16	=16	=16	=16	=16	=16	=16	=16	=16	=16	=16	=16	=16	=16	=16
8C\	x 5 3	.	16r	.	16r	.	16b\LL	.	16dd#X\LL	.	(8ff#\L	-gi-	2r	.	2r	.	2r	.
*	*	*	*	*	*rep	*	*	*	*	*	*	*	*	*	*	*	*	*
.	.	.	16g\LL	.	16g\LL	.	16cc\	.	16ee\	.	.	.	.	.	.	.	.	.
8r	.	.	16g\	.	16g\	.	16cc\	.	16ee\	.	8ee\J)	.	.	.	.	.	.	.
.	.	.	16g\JJ	.	16g\JJ	.	16cc\JJ	.	16ee\JJ	.	.	.	.	.	.	.	.	.
*	*	*	*	*	*Xrep	*	*	*	*	*	*	*	*	*	*	*	*	*
8C\	x 5 3	.	16r	.	16r	.	16r	.	16r	.	8ee\	-na	.	.	.	.	.	.
*	*	*	*	*	*rep	*	*	*	*	*	*	*	*	*	*	*	*	*
.	.	.	16g\LL	.	16g\LL	.	16a\LL	.	16ee\LL	.	.	.	.	.	.	.	.	.
8r	.	.	16g\	.	16g\	.	16a\	.	16ee\	.	8r	.	.	.	.	.	.	.
.	.	.	16g\JJ	.	16g\JJ	.	16a\JJ	.	16ee\JJ	.	.	.	.	.	.	.	.	.
*	*	*	*	*	*Xrep	*	*	*	*	*	*	*	*	*	*	*	*	*
=17	=17	=17	=17	=17	=17	=17	=17	=17	=17	=17	=17	=17	=17	=17	=17	=17	=17	=17
!	!	!	!LO:SIC:v:n=2:s=4f#\	!	!	!	!	!	!	!	!	!	!	!	!	!	!	!
8D\	x x 3	.	4a 4e\	.	4a 4f#\	.	4b 4g/	.	4dd\	.	(16dd\LL	cae-	2r	.	2r	.	2r	.
.	.	.	.	.	.	.	.	.	.	.	16ff#\	.	.	.	.	.	.	.
8r	.	.	.	.	.	.	.	.	.	.	16aa\	.	.	.	.	.	.	.
.	.	.	.	.	.	.	.	.	.	.	16gg\JJ	.	.	.	.	.	.	.
8F#\	x 5 3	.	4r	.	4f# 4A\	.	4a 4d/	.	4cc\	.	16ff#\LL	.	.	.	.	.	.	.
.	.	.	.	.	.	.	.	.	.	.	16ee\	.	.	.	.	.	.	.
8r	.	.	.	.	.	.	.	.	.	.	16dd\	.	.	.	.	.	.	.
.	.	.	.	.	.	.	.	.	.	.	16cc\JJ)	.	.	.	.	.	.	.
!	!	!	!	!	!	!	!	!	!LO:LB:g=original	!	!	!	!	!	!	!	!	!
=18	=18	=18	=18	=18	=18	=18	=18	=18	=18	=18	=18	=18	=18	=18	=18	=18	=18	=18
4G\	x x 3	.	8r	.	4d\	.	4a 4f#/	.	4cc\	.	8cc\	-lo-	2r	.	2r	.	2r	.
.	.	.	8d\L	.	.	.	.	.	.	.	8b\	-rum	.	.	.	.	.	.
4r	.	.	8d\J	.	8B\	.	8g/	.	8b\	.	8r	.	.	.	.	.	.	.
.	.	.	8r	.	8r	.	8r	.	16dd\LL	.	16dd\	A-	.	.	.	.	.	.
.	.	.	.	.	.	.	.	.	16dd#X\JJ	.	16dd#X\	-ve	.	.	.	.	.	.
!	!	!	!	!	!	!	!	!	!	!	!LO:LB:g=original	!	!	!	!	!	!	!
=19	=19	=19	=19:||	=19	=19	=19	=19	=19	=19	=19	=19	=19	=19	=19	=19	=19	=19	=19
!	!	!	!LO:TX:t=P:problem=t. 19-22 zapisane repetycją	!	!	!	!	!	!LO:TX:t=P:problem=mixed beam	!LO:DY:rj	!	!	!	!	!	!	!	!
8C\	x x 3_	.	16ryy	.	16r	.	16r	.	16ee\LL	p	8.ee\	Do-	2r	.	2r	.	2r	.
.	.	.	16g\LLyy	.	16g\LL	.	16eLL 16c/	.	16g/	.	.	.	.	.	.	.	.	.
8r	.	.	16g\yy	.	16g\	.	16e 16c/	.	16cc/	.	.	.	.	.	.	.	.	.
.	.	.	16g\JJyy	.	16g\JJ	.	16eJJ 16c/	.	16ee/JJ	.	16cc\	-mi-	.	.	.	.	.	.
.	.	.	.	.	.	.	.	.	8qqaa/	.	.	.	.	.	.	.	.	.
*	*	*	*	*	*	*	*rep	*	*	*	*	*	*	*	*	*	*	*
8C\	.	.	16ryy	.	16r	.	16r	.	16gg\LL	.	8a\	-na	.	.	.	.	.	.
*	*	*	*	*	*rep	*	*	*	*	*	*	*	*	*	*	*	*	*
.	.	.	16g\LLyy	.	16g\LL	.	16eLL 16c/	.	16ff#\	.	.	.	.	.	.	.	.	.
8r	.	.	16g\yy	.	16g\	.	16e 16c/	.	16gg\	.	8r	.	.	.	.	.	.	.
.	.	.	16g\JJyy	.	16g\JJ	.	16eJJ 16c/	.	16ee\JJ	.	.	.	.	.	.	.	.	.
*	*	*	*	*	*Xrep	*	*Xrep	*	*	*	*	*	*	*	*	*	*	*
=20	=20	=20	=20	=20	=20	=20	=20	=20	=20	=20	=20	=20	=20	=20	=20	=20	=20	=20
*	*	*	*	*	*	*	*	*	*	*	*	*ij	*	*	*	*	*	*
!	!	!	!	!	!	!	!	!	!	!	!LO:N:vis=8	!	!	!	!	!	!	!
8G\	x 5_ 3_	.	16ryy	.	16r	.	16r	.	(16dd\LL	.	8.dd\	Do-	2r	.	2r	.	2r	.
.	.	.	16g\LLyy	.	16g\LL	.	16dLL 16B/	.	16gg\	.	.	.	.	.	.	.	.	.
8r	.	.	16g\yy	.	16g\	.	16d 16B/	.	16bb\	.	.	.	.	.	.	.	.	.
.	.	.	16g\JJyy	.	16g\JJ	.	16dJJ 16B/	.	16aa\JJ	.	16b\	-mi-	.	.	.	.	.	.
*	*	*	*	*	*	*	*rep	*	*	*	*	*	*	*	*	*	*	*
8G\	.	.	16ryy	.	16r	.	16r	.	16gg\LL	.	8g\	-na	.	.	.	.	.	.
*	*	*	*	*	*rep	*	*	*	*	*	*	*Xij	*	*	*	*	*	*
.	.	.	16g\LLyy	.	16g\LL	.	16dLL 16B/	.	16ff#\	.	.	.	.	.	.	.	.	.
8r	.	.	16g\yy	.	16g\	.	16d 16B/	.	16ee\	.	8r	.	.	.	.	.	.	.
.	.	.	16g\JJyy	.	16g\JJ	.	16dJJ 16B/	.	16dd\JJ)	.	.	.	.	.	.	.	.	.
*	*	*	*	*	*Xrep	*	*Xrep	*	*	*	*	*	*	*	*	*	*	*
=21	=21	=21	=21	=21	=21	=21	=21	=21	=21	=21	=21	=21	=21	=21	=21	=21	=21	=21
!	!	!	!	!	!	!	!LO:TX:t=P:problem=cc\ right e/left	!	!	!	!	!	!	!	!	!	!	!
4C/	x 6 3	.	4ayy 4eyy\	.	4a 4e\	.	4cc 4e\	.	4ee\	.	(16cc\LL	An-	2r	.	2r	.	2r	.
.	.	.	.	.	.	.	.	.	.	.	16b\	.	.	.	.	.	.	.
.	.	.	.	.	.	.	.	.	.	.	16cc\)	.	.	.	.	.	.	.
.	.	.	.	.	.	.	.	.	.	.	16g#X\JJ	.	.	.	.	.	.	.
4r	.	.	4ryy	.	4r	.	4r	.	4r	.	(16a\LL	-ge-	.	.	.	.	.	.
.	.	.	.	.	.	.	.	.	.	.	32ff#\L	.	.	.	.	.	.	.
.	.	.	.	.	.	.	.	.	.	.	32ee\JJJ)	.	.	.	.	.	.	.
.	.	.	.	.	.	.	.	.	.	.	(32dd\LLL	.	.	.	.	.	.	.
.	.	.	.	.	.	.	.	.	.	.	32cc\)	.	.	.	.	.	.	.
.	.	.	.	.	.	.	.	.	.	.	32b'\	.	.	.	.	.	.	.
.	.	.	.	.	.	.	.	.	.	.	32a'\JJJ	.	.	.	.	.	.	.
=22	=22	=22	=22	=22	=22	=22	=22	=22	=22	=22	=22	=22	=22	=22	=22	=22	=22	=22
8r	.	.	8ryy	.	8r	.	8r	.	8r	.	4g\	-lo-	2r	.	2r	.	2r	.
!	!	!LO:DY:b:Bi:t=fo	!	!	!	!	!	!	!	!	!	!	!	!	!	!	!	!
8D/L	x 6 4	f	8d\Lyy	.	8d\L	.	8gL 8B/	.	8g/	.	.	.	.	.	.	.	.	.
8DD/J	x 5 3	.	8d\Jyy	.	8d\J	.	8f#J 8A/	.	24f#/LL	.	8f#\	-rum	.	.	.	.	.	.
.	.	.	.	.	.	.	.	.	24d/	.	.	.	.	.	.	.	.	.
.	.	.	.	.	.	.	.	.	24f#/JJ	.	.	.	.	.	.	.	.	.
8r	.	.	8ryy	.	8r	.	8r	.	24a\LL	.	8r	.	.	.	.	.	.	.
.	.	.	.	.	.	.	.	.	24dd\	.	.	.	.	.	.	.	.	.
.	.	.	.	.	.	.	.	.	24ff#\JJ	.	.	.	.	.	.	.	.	.
!	!	!	!	!	!	!	!LO:LB:g=original	!	!	!	!	!	!	!	!	!	!	!
=23	=23	=23	=23	=23	=23	=23	=23	=23	=23	=23	=23	=23	=23	=23	=23	=23	=23	=23
!	!	!	!	!	!	!	!LO:TX:t=P:problem=mixed beam	!	!LO:TX:a:i:t=Dolce	!	!LO:TX:a:t=2	!	!	!	!	!	!	!
!	!	!	!	!LO:DY:b:Bi:t=p.	!	!LO:DY:rj	!	!	!	!	!LO:N:vis=0	!	!	!	!	!	!	!
8D\	x 5_ 3_	p	16d\LL	p	16d\LL	p	16d/LL	.	4aa\	.	1r	.	2r	.	2r	.	2r	.
.	.	.	16a\	.	16a\	.	16cc\	.	.	.	.	.	.	.	.	.	.	.
8r	.	.	16a\	.	16a\	.	16cc\	.	.	.	.	.	.	.	.	.	.	.
.	.	.	16a\JJ	.	16a\JJ	.	16cc\JJ	.	.	.	.	.	.	.	.	.	.	.
*	*	*	*rep	*	*rep	*	*rep	*	*	*	*	*	*	*	*	*	*	*
!	!	!	!	!	!	!	!LO:TX:t=P:problem=mixed beam	!	!	!	!	!	!	!	!	!	!	!
8D\	.	.	16d\LL	.	16d\LL	.	16d/LL	.	16aa\LL	.	.	.	.	.	.	.	.	.
.	.	.	16a\	.	16a\	.	16cc\	.	32bb\L	.	.	.	.	.	.	.	.	.
.	.	.	.	.	.	.	.	.	32ccc\JJJ	.	.	.	.	.	.	.	.	.
8r	.	.	16a\	.	16a\	.	16cc\	.	32bb\LLL	.	.	.	.	.	.	.	.	.
.	.	.	.	.	.	.	.	.	32aa\	.	.	.	.	.	.	.	.	.
.	.	.	16a\JJ	.	16a\JJ	.	16cc\JJ	.	32gg\	.	.	.	.	.	.	.	.	.
.	.	.	.	.	.	.	.	.	32ff#\JJJ	.	.	.	.	.	.	.	.	.
*	*	*	*Xrep	*	*Xrep	*	*Xrep	*	*	*	*	*	*	*	*	*	*	*
!LO:LB:g=original	!	!	!	!	!LO:LB:g=original	!	!	!	!	!	!	!	!	!	!	!	!	!
=24	=24	=24	=24	=24	=24	=24	=24	=24	=24	=24	=24	=24	=24	=24	=24	=24	=24	=24
8G\	x x 3_	.	16r	.	16r	.	16r	.	16gg\LL	.	.	.	2r	.	2r	.	2r	.
.	.	.	16gLL 16B\	.	16gLL 16B\	.	16b\LL	.	16dd\J	.	.	.	.	.	.	.	.	.
8r	.	.	16g 16B\	.	16g 16B\	.	16b\	.	8dd\J	.	.	.	.	.	.	.	.	.
.	.	.	16gJJ 16B\	.	16gJJ 16B\	.	16b\JJ	.	.	.	.	.	.	.	.	.	.	.
*	*	*	*	*	*	*	*rep	*	*	*	*	*	*	*	*	*	*	*
8G\	.	.	16r	.	16r	.	16r	.	4r	.	.	.	.	.	.	.	.	.
*	*	*	*rep	*	*rep	*	*	*	*	*	*	*	*	*	*	*	*	*
.	.	.	16gLL 16B\	.	16gLL 16B\	.	16b\LL	.	.	.	.	.	.	.	.	.	.	.
8r	.	.	16g 16B\	.	16g 16B\	.	16b\	.	.	.	.	.	.	.	.	.	.	.
.	.	.	16gJJ 16B\	.	16gJJ 16B\	.	16b\JJ	.	.	.	.	.	.	.	.	.	.	.
*	*	*	*Xrep	*	*Xrep	*	*Xrep	*	*	*	*	*	*	*	*	*	*	*
!	!	!	!	!	!	!	!Xrep	!	!LO:LB:g=original	!	!	!	!	!	!	!	!	!
=25	=25	=25	=25	=25	=25	=25	=25	=25	=25	=25	=25	=25	=25	=25	=25	=25	=25	=25
!	!	!	!	!	!	!	!	!	!LO:TX:a:t=2	!	!	!	!	!	!	!	!	!
!	!	!	!	!	!	!	!	!	!LO:N:vis=0	!	!	!	!	!	!	!	!	!
8D\	x 7_ 5_	.	16r	.	16r	.	16r	.	1r	.	4dd\	Sal-	2r	.	2r	.	2r	.
.	.	.	16aLL 16f#\	.	16aLL 16f#\	.	16cc\LL	.	.	.	.	.	.	.	.	.	.	.
8r	.	.	16a 16f#\	.	16a 16f#\	.	16cc\	.	.	.	.	.	.	.	.	.	.	.
.	.	.	16aJJ 16f#\	.	16aJJ 16f#\	.	16cc\JJ	.	.	.	.	.	.	.	.	.	.	.
*	*	*	*	*	*	*	*rep	*	*	*	*	*	*	*	*	*	*	*
8D\	.	.	16r	.	16r	.	16r	.	.	.	(16dd\LL	-ve	.	.	.	.	.	.
*	*	*	*rep	*	*rep	*	*	*	*	*	*	*	*	*	*	*	*	*
.	.	.	16aLL 16f#\	.	16aLL 16f#\	.	16cc\LL	.	.	.	16dd#X\	.	.	.	.	.	.	.
8r	.	.	16a 16f#\	.	16a 16f#\	.	16cc\	.	.	.	16ee\	.	.	.	.	.	.	.
.	.	.	16aJJ 16f#\	.	16aJJ 16f#\	.	16cc\JJ	.	.	.	16cc\JJ)	.	.	.	.	.	.	.
*	*	*	*Xrep	*	*Xrep	*	*Xrep	*	*	*	*	*	*	*	*	*	*	*
!	!	!	!	!	!	!	!	!	!	!	!LO:LB:g=original	!	!	!	!	!	!	!
=26	=26	=26	=26	=26	=26	=26	=26	=26	=26	=26	=26	=26	=26	=26	=26	=26	=26	=26
!	!	!	!LO:TX:t=P:problem=skreślenie i repetycje	!	!	!	!	!	!	!	!	!	!	!	!	!	!	!
8G\	x x 3_	.	16r	.	16r	.	16r	.	.	.	16b\LL	ra-	2r	.	2r	.	2r	.
.	.	.	16B/LLyy	.	16g 16B\LL	.	16b\LL	.	.	.	16cc\JJ	.	.	.	.	.	.	.
8r	.	.	16B/yy	.	16g\	.	16b\	.	.	.	8cc\	-dix	.	.	.	.	.	.
.	.	.	16B/JJyy	.	16g\JJ	.	16b\JJ	.	.	.	.	.	.	.	.	.	.	.
*	*	*	*	*	*	*	*rep	*	*	*	*	*	*	*	*	*	*	*
!	!	!	!LO:N:vis=8	!	!	!	!	!	!	!	!	!	!	!	!	!	!	!
8GG/	.	.	16r	.	16r	.	16r	.	.	.	4r	.	.	.	.	.	.	.
*	*	*	*	*	*rep	*	*	*	*	*	*	*	*	*	*	*	*	*
.	.	.	16B/LLyy	.	16g\LL	.	16b\LL	.	.	.	.	.	.	.	.	.	.	.
8r	.	.	16B/yy	.	16g\	.	16b\	.	.	.	.	.	.	.	.	.	.	.
.	.	.	16B/JJyy	.	16g\JJ	.	16b\JJ	.	.	.	.	.	.	.	.	.	.	.
*	*	*	*	*	*Xrep	*	*Xrep	*	*	*	*	*	*	*	*	*	*	*
!	!	!	!LO:LB:g=original	!	!	!	!	!	!	!	!	!	!	!	!	!	!	!
=27	=27	=27	=27	=27	=27	=27	=27	=27	=27	=27	=27	=27	=27	=27	=27	=27	=27	=27
!	!	!	!	!	!	!	!LO:TX:t=P:problem=mixed beam	!	!	!	!LO:TX:a:t=2	!	!	!	!	!	!	!
!	!	!	!	!	!	!	!	!	!	!	!LO:N:vis=0	!	!	!	!	!	!	!
8D\	x 7_ 5_	.	(16d\LL	.	(16d\LL	.	16d/LL	.	4aaW\	.	1r	.	2r	.	2r	.	2r	.
.	.	.	16a\)	.	16a\)	.	16cc\	.	.	.	.	.	.	.	.	.	.	.
8r	.	.	16a'\	.	16a'\	.	16cc\	.	.	.	.	.	.	.	.	.	.	.
.	.	.	16a'\JJ	.	16a'\JJ	.	16cc\JJ	.	.	.	.	.	.	.	.	.	.	.
*	*	*	*rep	*	*rep	*	*rep	*	*	*	*	*	*	*	*	*	*	*
!	!	!	!	!	!	!	!LO:TX:t=P:problem=mixed beam	!	!LO:TX:t=P:problem=klamra łukowa i cyfra dopisane ołówkiem	!	!	!	!	!	!	!	!	!
8D\	.	.	(16d\LL	.	(16d\LL	.	16d/LL	.	24aa\LL	.	.	.	.	.	.	.	.	.
.	.	.	.	.	.	.	.	.	24ccc\	.	.	.	.	.	.	.	.	.
.	.	.	16a\)	.	16a\)	.	16cc\	.	.	.	.	.	.	.	.	.	.	.
.	.	.	.	.	.	.	.	.	24bb\JJ	.	.	.	.	.	.	.	.	.
!	!	!	!	!	!	!	!	!	!LO:TX:t=P:problem=klamra łukowa i cyfra dopisane ołówkiem	!	!	!	!	!	!	!	!	!
8r	.	.	16a'\	.	16a'\	.	16cc\	.	24aa\LL	.	.	.	.	.	.	.	.	.
.	.	.	.	.	.	.	.	.	24gg\	.	.	.	.	.	.	.	.	.
.	.	.	16a'\JJ	.	16a'\JJ	.	16cc\JJ	.	.	.	.	.	.	.	.	.	.	.
.	.	.	.	.	.	.	.	.	24ff#\JJ	.	.	.	.	.	.	.	.	.
*	*	*	*Xrep	*	*Xrep	*	*Xrep	*	*	*	*	*	*	*	*	*	*	*
=28	=28	=28	=28	=28	=28	=28	=28	=28	=28	=28	=28	=28	=28	=28	=28	=28	=28	=28
!	!	!	!	!	!	!	!	!	!LO:TX:t=P:problem=klamra łukowa i cyfra dopisane ołówkiem	!	!	!	!	!	!	!	!	!
8G\	x x 3_	.	16r	.	16r	.	16r	.	24gg\LL	.	.	.	2r	.	2r	.	2r	.
.	.	.	.	.	.	.	.	.	24ff#\	.	.	.	.	.	.	.	.	.
.	.	.	16gLL 16B\	.	16gLL 16B\	.	16bLL 16d/	.	.	.	.	.	.	.	.	.	.	.
.	.	.	.	.	.	.	.	.	24ee\J	.	.	.	.	.	.	.	.	.
8r	.	.	16g 16B\	.	16g 16B\	.	16b 16d/	.	8dd\J	.	.	.	.	.	.	.	.	.
.	.	.	16gJJ 16B\	.	16gJJ 16B\	.	16bJJ 16d/	.	.	.	.	.	.	.	.	.	.	.
*	*	*	*rep	*	*	*	*rep	*	*	*	*	*	*	*	*	*	*	*
8G\	.	.	16r	.	16r	.	16r	.	4r	.	.	.	.	.	.	.	.	.
*	*	*	*	*	*rep	*	*	*	*	*	*	*	*	*	*	*	*	*
.	.	.	16gLL 16B\	.	16gLL 16B\	.	16bLL 16d/	.	.	.	.	.	.	.	.	.	.	.
8r	.	.	16g 16B\	.	16g 16B\	.	16b 16d/	.	.	.	.	.	.	.	.	.	.	.
.	.	.	16gJJ 16B\	.	16gJJ 16B\	.	16bJJ 16d/	.	.	.	.	.	.	.	.	.	.	.
*	*	*	*Xrep	*	*Xrep	*	*Xrep	*	*	*	*	*	*	*	*	*	*	*
=29	=29	=29	=29	=29	=29	=29	=29	=29	=29	=29	=29	=29	=29	=29	=29	=29	=29	=29
!	!	!	!	!	!	!	!	!	!LO:TX:a:t=1	!	!	!	!	!	!	!	!	!
8D\	x 7_ 5_	.	16r	.	16r	.	16r	.	2r	.	4dd\	Sal-	2r	.	2r	.	2r	.
.	.	.	16aLL 16f#\	.	16aLL 16f#\	.	16cc\LL	.	.	.	.	.	.	.	.	.	.	.
8r	.	.	16a 16f#\	.	16a 16f#\	.	16cc\	.	.	.	.	.	.	.	.	.	.	.
.	.	.	16aJJ 16f#\	.	16aJJ 16f#\	.	16cc\JJ	.	.	.	.	.	.	.	.	.	.	.
!	!	!	!LO:N:vis=8	!	!LO:N:vis=8	!	!	!	!	!	!	!	!	!	!	!	!	!
8D\	.	.	16r	.	16r	.	16r	.	.	.	(16dd\LL	-ve	.	.	.	.	.	.
*	*	*	*rep	*	*rep	*	*	*	*	*	*	*	*	*	*	*	*	*
.	.	.	16aLL 16f#\	.	16aLL 16f#\	.	16cc\LL	.	.	.	16dd#X\	.	.	.	.	.	.	.
.	.	.	.	.	.	.	.	.	.	.	8qqff#/	.	.	.	.	.	.	.
8r	.	.	16a 16f#\	.	16a 16f#\	.	16cc\	.	.	.	16ee\)	.	.	.	.	.	.	.
.	.	.	16aJJ 16f#\	.	16aJJ 16f#\	.	16cc\JJ	.	.	.	16cc\JJ	.	.	.	.	.	.	.
*	*	*	*Xrep	*	*Xrep	*	*	*	*	*	*	*	*	*	*	*	*	*
!	!	!	!	!	!LO:LB:g=original	!	!	!	!	!	!	!	!	!	!	!	!	!
=30	=30	=30	=30	=30	=30	=30	=30	=30	=30	=30	=30	=30	=30	=30	=30	=30	=30	=30
!	!	!	!LO:SIC:v:s=(4d#\	!	!LO:SIC:v:s=(4d#\	!	!	!	!	!	!	!	!	!	!	!	!	!
4D#X\	.	.	(4d\	.	(4d\	.	4a/	.	4cc\	.	4cc\	por-	2r	.	2r	.	2r	.
8E\	x 5 3	.	8g\)	.	8g\)	.	8g/	.	8b\	.	8b\	-ta	.	.	.	.	.	.
8r	.	.	8r	.	8r	.	8r	.	8r	.	8r	.	.	.	.	.	.	.
!LO:LB:g=original	!	!	!	!	!	!	!LO:LB:g=original	!	!	!	!	!	!	!	!	!	!	!
=31	=31	=31	=31	=31	=31	=31	=31	=31	=31	=31	=31	=31	=31	=31	=31	=31	=31	=31
!	!	!	!	!LO:DY:b:Bi:t=for	!	!LO:DY:b:Bi:t=fo	!	!	!	!	!	!	!	!	!	!	!	!
8C/	x 6 3	.	8e 8c\	f	8e 8c\	f	8a 8e/	.	8a\	.	16r	.	2r	.	2r	.	2r	.
.	.	.	.	.	.	.	.	.	.	.	(16e/LL	ex	.	.	.	.	.	.
8r	.	.	8r	.	8r	.	8r	.	8r	.	16a/	.	.	.	.	.	.	.
.	.	.	.	.	.	.	.	.	.	.	16g#X/JJ)	.	.	.	.	.	.	.
4r	.	.	4r	.	4r	.	4r	.	4r	.	(16a\LL	qua	.	.	.	.	.	.
.	.	.	.	.	.	.	.	.	.	.	16b\	.	.	.	.	.	.	.
.	.	.	.	.	.	.	.	.	.	.	16cc\	.	.	.	.	.	.	.
.	.	.	.	.	.	.	.	.	.	.	16g#X\JJ)	.	.	.	.	.	.	.
=32	=32	=32	=32	=32	=32	=32	=32	=32	=32	=32	=32	=32	=32	=32	=32	=32	=32	=32
!	!	!	!	!LO:DY:b:Bi:t=for	!	!LO:DY:b:Bi:t=fo	!	!	!	!	!	!	!	!	!	!	!	!
8C/	x 6 3	.	8e 8c\	f	8e 8c\	f	8a 8e/	.	8a\	.	16r	.	2r	.	2r	.	2r	.
.	.	.	.	.	.	.	.	.	.	.	(16a\LL	mun-	.	.	.	.	.	.
8r	.	.	8r	.	8r	.	8r	.	8r	.	16ee\	.	.	.	.	.	.	.
.	.	.	.	.	.	.	.	.	.	.	16dd#X\JJ)	.	.	.	.	.	.	.
4r	.	.	4r	.	4r	.	4r	.	4r	.	(16ff#\LL	-do	.	.	.	.	.	.
.	.	.	.	.	.	.	.	.	.	.	16ee\JJ)	.	.	.	.	.	.	.
*	*	*	*	*	*	*	*	*	*	*	*Xtuplet	*	*	*	*	*	*	*
.	.	.	.	.	.	.	.	.	.	.	(40dd#\LLL	.	.	.	.	.	.	.
.	.	.	.	.	.	.	.	.	.	.	40cc\	.	.	.	.	.	.	.
.	.	.	.	.	.	.	.	.	.	.	40b\)	.	.	.	.	.	.	.
.	.	.	.	.	.	.	.	.	.	.	40cc'\	.	.	.	.	.	.	.
.	.	.	.	.	.	.	.	.	.	.	40a'\JJJ	.	.	.	.	.	.	.
!	!	!	!	!	!	!	!	!	!	!	!LO:LB:g=original	!	!	!	!	!	!	!
=33	=33	=33	=33	=33	=33	=33	=33	=33	=33	=33	=33	=33	=33	=33	=33	=33	=33	=33
8D\	x 6 4	.	(16G/LL	.	(16G/LL	.	(16B/LL	.	8.g/L	.	8.g\	lux	2r	.	2r	.	2r	.
.	.	.	16B/	.	16B/	.	16d/	.	.	.	.	.	.	.	.	.	.	.
8r	.	.	16G/	.	16G/	.	16B/	.	.	.	.	.	.	.	.	.	.	.
.	.	.	16B/JJ)	.	16B/JJ)	.	16d/JJ)	.	16g/Jk	.	16g\	est	.	.	.	.	.	.
8D\	x 5 3	.	16F#/LL	.	(16F#/LL	.	16c/LL	.	4f#/	.	4f#\	or-	.	.	.	.	.	.
.	.	.	16A/	.	16A/	.	16d/	.	.	.	.	.	.	.	.	.	.	.
8r	.	.	16F#/	.	16F#/	.	16c/	.	.	.	.	.	.	.	.	.	.	.
.	.	.	16A/JJ	.	16A/JJ)	.	16d/JJ	.	.	.	.	.	.	.	.	.	.	.
!	!	!	!	!	!	!	!	!	!	!	!	!	!	!	!	!	!LO:LB:g=original	!
=34	=34	=34	=34	=34	=34	=34	=34	=34	=34	=34	=34	=34	=34	=34	=34	=34	=34	=34
!	!	!LO:DY:b:Bi:t=for	!LO:TX:t=P:problem=od tego miejsca wszystkie caudy w dół right\	!LO:DY:b:rj:Bi:t=fo	!	!LO:DY:b:rj:Bi:t=fo	!	!LO:DY:b:rj:Bi:t=f.	!	!LO:DY:b:Bi:t=ffor.	!	!	!	!LO:DY:b:Bi:t=for	!	!LO:DY:rj	!	!LO:DY:b:Bi:t=fo
16.G\LL	8_ 5_ 3-_	f	8.gL 8.G\	f	8.gL 8.G\	f	8.b-XL 8.g\	f	8.ggL 8.b-X\	ff	8g\	-ta	16.G\LL	f	4D/	f	4d/	f
32F#X\K	.	.	.	.	.	.	.	.	.	.	.	.	32F#X\K	.	.	.	.	.
16.G\	.	.	.	.	.	.	.	.	.	.	8r	.	16.G\	.	.	.	.	.
.	.	.	16gJk 16G\	.	16gJk 16G\	.	16b-Jk 16g\	.	16ggJk 16b-\	.	.	.	.	.	.	.	.	.
!LO:N:vis=16	!	!	!	!	!	!	!	!	!	!	!	!	!	!	!	!	!	!
32A\JJk	.	.	.	.	.	.	.	.	.	.	.	.	32A\JJk	.	.	.	.	.
!LO:N:vis=16.	!	!	!	!	!	!	!	!	!	!	!	!	!LO:TX:t=P:problem=mixed beam	!	!	!	!	!
16B-X\LL	.	.	8.e-X\L	.	8e-X\L	.	8.b-L 8.g\	.	8.ggL 8.b-\	.	8.gg\	Sal-	16.B-X\LL	.	4D/	.	4d/	.
16A\	.	.	.	.	.	.	.	.	.	.	.	.	.	.	.	.	.	.
.	.	.	.	.	.	.	.	.	.	.	.	.	32A\K	.	.	.	.	.
!LO:N:vis=16.	!	!	!	!	!	!	!	!	!	!	!	!	!	!	!	!	!	!
16B-\	.	.	.	.	8c#X\J	.	.	.	.	.	.	.	16.B-\	.	.	.	.	.
16c#X\JJ	.	.	16c#X\Jk	.	.	.	16b-Jk 16g\	.	16ggJk 16b-\	.	16gg\	-ve	.	.	.	.	.	.
.	.	.	.	.	.	.	.	.	.	.	.	.	32C#X/JJk	.	.	.	.	.
!	!	!	!LO:LB:g=original	!	!	!	!	!	!	!	!	!	!LO:LB:g=original	!	!	!	!	!
=35	=35	=35	=35	=35	=35	=35	=35	=35	=35	=35	=35	=35	=35	=35	=35	=35	=35	=35
!LO:TX:t=P:problem=mixed beam	!	!	!	!	!	!	!	!	!	!	!	!	!LO:TX:t=P:problem=mixed beam	!	!	!	!	!
8d\L	x x 3#	.	8d\L	.	8d\L	.	8aL 8f#\	.	8ff#L 8a\	.	8ff#\	ra-	8D\L	.	4D/	.	16d'/LL	>
.	.	.	.	.	.	.	.	.	.	.	.	.	.	.	.	.	32d'/L	.
.	.	.	.	.	.	.	.	.	.	.	.	.	.	.	.	.	32d'/JJJ	.
8D/J	.	.	8d\J	.	8d\J	.	8aJ 8f#\	.	8dd\J	.	8dd\	-dix	8DD/J	.	.	.	16d'/LL	.
.	.	.	.	.	.	.	.	.	.	.	.	.	.	.	.	.	16d'/JJ	.
!	!	!	!	!	!	!	!	!	!LO:N:vis=8	!	!	!	!	!	!	!	!	!
4r	.	.	4r	.	4r	.	4r	.	16r	.	4r	.	4r	.	4r	.	16d'/LL	.
.	.	.	.	.	.	.	.	.	16dd\LL	.	.	.	.	.	.	.	16d'/	.
.	.	.	.	.	.	.	.	.	16ee\	.	.	.	.	.	.	.	16d'/	.
.	.	.	.	.	.	.	.	.	16ff#\JJ	.	.	.	.	.	.	.	16d'/JJ	]]
=36	=36	=36	=36	=36	=36	=36	=36	=36	=36	=36	=36	=36	=36	=36	=36	=36	=36	=36
!	!	!	!	!	!	!	!LO:N:n=2:vis=8	!LO:DY:rj	!	!	!	!	!	!	!	!	!	!LO:DY:b:Bi:t=for
16.G\LL	8_ 5_ 3-_	.	8.gL 8.G^\	.	8.gL 8.G^\	.	8.b-XL 8.g\	f	8.ggL 8.b-X\	.	8.gg\	Sal-	16.G\LL	.	4D/	.	4d/	f
32F#X\K	.	.	.	.	.	.	.	.	.	.	.	.	32F#X\K	.	.	.	.	.
16.G\	.	.	.	.	.	.	.	.	.	.	.	.	16.G\	.	.	.	.	.
.	.	.	16gJk 16G\	.	16gJk 16G\	.	16b-Jk 16g\	.	16ggJk 16b-\	.	16gg\	-ve	.	.	.	.	.	.
32A\JJk	.	.	.	.	.	.	.	.	.	.	.	.	32A\JJk	.	.	.	.	.
!	!	!	!	!	!	!	!	!	!LO:N:n=2:vis=8	!	!	!	!	!	!	!	!	!
16.B-X\LL	.	.	8.e-X\L	.	8e-X\L	.	8.b-L 8.g\	.	8.ggL 8.b-\	.	8.gg\	Sal-	16.B-X\LL	.	4D/	.	4d/	.
32A\K	.	.	.	.	.	.	.	.	.	.	.	.	32A\K	.	.	.	.	.
16.B-\	.	.	.	.	8c#X\J	.	.	.	.	.	.	.	16.B-\	.	.	.	.	.
.	.	.	16c#X\Jk	.	.	.	16b-Jk 16g\	.	16ggJk 16b-\	.	16gg\	-ve	.	.	.	.	.	.
32c#X\JJk	.	.	.	.	.	.	.	.	.	.	.	.	32C#X\JJk	.	.	.	.	.
!	!	!	!	!	!	!	!	!	!LO:LB:g=original	!	!	!	!	!	!	!	!	!
=37	=37	=37	=37	=37	=37	=37	=37	=37	=37	=37	=37	=37	=37	=37	=37	=37	=37	=37
!	!	!	!	!	!	!	!	!LO:DY:b:rj:Bi:t=p.	!	!LO:DY:b:Bi:t=p.	!	!	!	!LO:DY:rj	!	!	!	!
4d\	x x 3#	.	4d\	.	4d\	.	(16aLL 16f#/	p	(16ff#X\LL	p	8ff#\	por-	4D\	p	4D/	.	4d/	.
.	.	.	.	.	.	.	16dd/	.	16dd\	.	.	.	.	.	.	.	.	.
.	.	.	.	.	.	.	16cc#X/	.	16ee\	.	8dd\	-ta	.	.	.	.	.	.
.	.	.	.	.	.	.	16ccn/JJ	.	16ff#\JJ	.	.	.	.	.	.	.	.	.
8r	.	.	8r	p	8r	.	16bn/LL	.	16gg\LL	.	4r	.	8r	.	4r	.	4r	.
.	.	.	.	.	.	.	16b-X/	.	16aa\	.	.	.	.	.	.	.	.	.
!	!	!	!	!	!	!	!	!	!	!	!	!	!LO:SIC:v:s=8C#/	!	!	!	!	!
8C#X/	x 7 5	.	8g\	.	8b-X 8g\	p	16a/	.	16bb-X\	.	.	.	8C/	f	.	.	.	.
.	.	.	.	.	.	.	16g/JJ)	.	16cc#X\JJ	.	.	.	.	.	.	.	.	.
!LO:LB:g=original	!	!	!	!	!	!	!	!	!	!	!	!	!	!	!	!	!	!
=38	=38	=38	=38	=38	=38	=38	=38	=38	=38	=38	=38	=38	=38	=38	=38	=38	=38	=38
!	!	!	!	!	!	!	!	!	!	!	!LO:TX:a:t=2	!	!	!	!	!	!	!
!	!	!LO:DY:rj	!	!LO:DY:b:Bi:t=fo	!	!LO:DY:b:Bi:t=fo	!	!	!	!	!	!LO:N:vis=0	!	!LO:DY:b:Bi:t=p.	!	!	!	!
4D\	x 5 3	p	8f#\	f	8a 8f#\	f	(16f#LL 16A/	.	(16dd\LL)	.	1r	.	4D\	p	4D/	.	4d/	.
.	.	.	.	.	.	.	16dd/	.	16dd\	.	.	.	.	.	.	.	.	.
.	.	.	4r	.	4r	.	16cc#X/	.	16ee\	.	.	.	.	.	.	.	.	.
.	.	.	.	.	.	.	16ccn/JJ	.	16ff#\JJ	.	.	.	.	.	.	.	.	.
8r	.	.	.	.	.	.	16bn/LL	.	16gg\LL	.	.	.	8r	.	4r	.	4r	.
!	!	!	!	!	!	!	!LO:SIC:v:s=16b-/	!	!	!	!	!	!	!	!	!	!	!
.	.	.	.	.	.	.	16b/	.	16aa\	.	.	.	.	.	.	.	.	.
!	!	!	!	!LO:DY:b:Bi:t=p&colon;	!LO:SIC:v:n=1:s=8b-	!	!	!	!LO:SIC:v:s=16bb-\	!	!	!	!LO:SIC:v:s=8C#/	!	!	!	!	!
8C#X/	x 7 5	.	8g\	p	8b 8g\	p	16a/	.	16bb\	.	.	.	8C/	.	.	.	.	.
.	.	.	.	.	.	.	16g/JJ)	.	16cc#X\JJ	.	.	.	.	.	.	.	.	.
!	!	!	!	!	!LO:LB:g=original	!	!LO:LB:g=original	!	!	!	!	!	!	!	!	!	!	!
=39	=39	=39	=39	=39	=39	=39	=39	=39	=39	=39	=39	=39	=39	=39	=39	=39	=39	=39
!	!	!	!	!LO:DY:b:Bi:t=for	!	!LO:DY:b:Bi:t=for	!	!	!	!	!	!	!	!	!LO:TX:a:t=19.	!	!LO:TX:a:t=19	!
4D\	x 5 3	.	4f#\	f	4a 4f#\	f	(16f#LL 16A/	.	16dd\LL)	.	.	.	4D\	.	2r	.	2r	.
!	!	!	!	!	!	!	!	!	!LO:TX:t=P:problem=mixed beam	!	!	!	!	!	!	!	!	!
.	.	.	.	.	.	.	16d/	.	16d/	.	.	.	.	.	.	.	.	.
.	.	.	.	.	.	.	16c#X/	.	16e/	.	.	.	.	.	.	.	.	.
.	.	.	.	.	.	.	16cn/JJ	.	16f#/JJ	.	.	.	.	.	.	.	.	.
4r	.	.	4r	.	4r	.	16B/LL	.	16g/LL	.	.	.	4r	.	.	.	.	.
.	.	.	.	.	.	.	16A/	.	16a/	.	.	.	.	.	.	.	.	.
.	.	.	.	.	.	.	16G/	.	16b/	.	.	.	.	.	.	.	.	.
.	.	.	.	.	.	.	16f#/JJ)	.	16cc/JJ	.	.	.	.	.	.	.	.	.
!	!	!	!	!	!	!	!LO:LB:g=original	!	!	!	!	!	!	!	!	!	!	!
=40	=40	=40	=40	=40	=40	=40	=40	=40	=40	=40	=40	=40	=40	=40	=40	=40	=40	=40
!	!	!LO:DY:b:rj:Bi:t=p.	!	!	!	!LO:DY:b:Bi:t=p.	!	!	!	!	!	!	!LO:TX:t=13	!	!	!	!	!
8G\	x 5 3	p	16r	p	16r	p	16r	p	16r	.	(8.dd\L	Ex	2r	.	2r	.	2r	.
.	.	.	16G/LL	.	16g\LL	.	16b\LL	.	16dd\LL	.	.	.	.	.	.	.	.	.
8r	.	.	16G/	.	16g\	.	16b\	.	16dd\	.	.	.	.	.	.	.	.	.
.	.	.	16G/JJ	.	16g\JJ	.	16b\JJ	.	16dd\JJ	.	16gg\Jk)	.	.	.	.	.	.	.
*	*	*	*	*	*	*	*rep	*	*	*	*	*	*	*	*	*	*	*
8G\	x 5 3	.	16r	.	16r	.	16r	.	16r	.	(8bb\L	qua	.	.	.	.	.	.
*	*	*	*rep	*	*rep	*	*	*	*rep	*	*	*	*	*	*	*	*	*
.	.	.	16G/LL	.	16g\LL	.	16b\LL	.	16dd\LL	.	.	.	.	.	.	.	.	.
8r	.	.	16G/	.	16g\	.	16b\	.	16dd\	.	16aa\L	.	.	.	.	.	.	.
.	.	.	16G/JJ	.	16g\JJ	.	16b\JJ	.	16dd\JJ	.	16gg\JJ)	.	.	.	.	.	.	.
*	*	*	*Xrep	*	*Xrep	*	*Xrep	*	*Xrep	*	*	*	*	*	*	*	*	*
!	!	!	!	!	!	!	!	!	!	!	!LO:LB:g=original	!	!	!	!	!	!	!
=41	=41	=41	=41	=41	=41	=41	=41	=41	=41	=41	=41	=41	=41	=41	=41	=41	=41	=41
8C/	x 6 3	.	16r	.	16r	.	16r	.	16r	.	(16ff#\LL	mun-	2r	.	2r	.	2r	.
*	*	*	*rep	*	*	*	*	*	*	*	*	*	*	*	*	*	*	*
.	.	.	16G/LL	.	16g\LL	.	16cc\LL	.	16ee\LL	.	16ee\JJ)	.	.	.	.	.	.	.
8r	.	.	16G/	.	16g\	.	16cc\	.	16ee\	.	4ee\	-do	.	.	.	.	.	.
.	.	.	16G/JJ	.	16g\JJ	.	16cc\JJ	.	16ee\JJ	.	.	.	.	.	.	.	.	.
*	*	*	*Xrep	*	*	*	*rep	*	*	*	*	*	*	*	*	*	*	*
8C/	x 6 3	.	16r	.	16r	.	16r	.	16r	.	.	.	.	.	.	.	.	.
*	*	*	*rep	*	*rep	*	*	*	*rep	*	*	*	*	*	*	*	*	*
.	.	.	16G/LL	.	16g\LL	.	16cc\LL	.	16ee\LL	.	.	.	.	.	.	.	.	.
8r	.	.	16G/	.	16g\	.	16cc\	.	16ee\	.	8r	.	.	.	.	.	.	.
.	.	.	16G/JJ	.	16g\JJ	.	16cc\JJ	.	16ee\JJ	.	.	.	.	.	.	.	.	.
*	*	*	*Xrep	*	*Xrep	*	*Xrep	*	*Xrep	*	*	*	*	*	*	*	*	*
=42	=42	=42	=42	=42	=42	=42	=42	=42	=42	=42	=42	=42	=42	=42	=42	=42	=42	=42
!	!	!	!LO:N:vis=8	!	!	!	!	!	!	!	!	!	!	!	!	!	!	!
8D\	.x 5_ 3_	.	16r	.	16r	.	16r	.	16r	.	4a\	lux	2r	.	2r	.	2r	.
.	.	.	16d\LL	.	16d\LL	.	16f#/LL	.	16a\LL	.	.	.	.	.	.	.	.	.
8r	.	.	16d\	.	16d\	.	16f#/	.	16a\	.	.	.	.	.	.	.	.	.
.	.	.	16d\JJ	.	16d\JJ	.	16f#/JJ	.	16a\JJ	.	.	.	.	.	.	.	.	.
8D\	.	.	16d\LL	.	16d\LL	.	16b/LL	.	16dd\LL	.	(16dd\LL	est	.	.	.	.	.	.
.	.	.	16d\	.	16d\	.	16b/	.	16dd\	.	16dd#X\	.	.	.	.	.	.	.
8r	.	.	16f#\	.	16f#\	.	16a/	.	16cc\	.	16ee\	.	.	.	.	.	.	.
.	.	.	16f#\JJ	.	16f#\JJ	.	16a/JJ	.	16cc\JJ	.	16cc\JJ)	.	.	.	.	.	.	.
!	!	!	!LO:LB:g=original	!	!	!	!	!	!	!	!	!	!	!	!	!	!	!
=43	=43	=43	=43	=43	=43	=43	=43	=43	=43	=43	=43	=43	=43	=43	=43	=43	=43	=43
!	!	!	!LO:N:vis=8	!	!	!	!	!	!	!	!	!	!	!	!	!	!	!
8r	.	.	16r	.	16r	.	16r	.	16r	.	4cc\	or-	2r	.	2r	.	2r	.
.	.	.	16G/LL	.	16g\LL	.	16a/LL	.	16cc\LL	.	.	.	.	.	.	.	.	.
8D\L	x 7 5	.	16G/	.	16g\	.	16a/	.	16cc\	.	.	.	.	.	.	.	.	.
.	.	.	16G/JJ	.	16g\JJ	.	16a/JJ	.	16cc\JJ	.	.	.	.	.	.	.	.	.
!	!	!	!LO:TX:t=P:problem=mixed beam	!	!	!	!	!	!	!	!	!	!	!	!	!	!	!
8G\J	x x 3	.	(16G/LL	.	(16g\LL	.	16g/LL	.	8b\	.	8b\	-ta	.	.	.	.	.	.
.	.	.	16C\)	.	16c\)	.	16e/	.	.	.	.	.	.	.	.	.	.	.
8r	.	.	16b'\	.	16B'\	.	16d/	.	8r	.	8r	.	.	.	.	.	.	.
.	.	.	16g'/JJ	.	16G'\JJ	.	16c/JJ	.	.	.	.	.	.	.	.	.	.	.
!	!	!	!	!	!	!	!	!	!LO:LB:g=original	!	!	!	!	!	!	!	!	!
=44	=44	=44	=44	=44	=44	=44	=44	=44	=44	=44	=44	=44	=44	=44	=44	=44	=44	=44
8G\	x x 3	.	16r	.	16r	.	16r	.	16r	.	4dd\	Gau-	2r	.	2r	.	2r	.
.	.	.	16G/LL	.	16g\LL	.	16b\LL	.	16dd\LL	.	.	.	.	.	.	.	.	.
8r	.	.	16G/	.	16g\	.	16b\	.	16dd\	.	.	.	.	.	.	.	.	.
.	.	.	16G/JJ	.	16g\JJ	.	16b\JJ	.	16dd\JJ	.	.	.	.	.	.	.	.	.
*	*	*	*	*	*	*	*rep	*	*	*	*	*	*	*	*	*	*	*
8BB/	.	.	16r	.	16r	.	16r	.	16r	.	(8.gg\L	-de	.	.	.	.	.	.
*	*	*	*rep	*	*	*	*	*	*rep	*	*	*	*	*	*	*	*	*
.	.	.	16G/LL	.	16g\LL	.	16b\LL	.	16dd\LL	.	.	.	.	.	.	.	.	.
8r	.	.	16G/	.	16g\	.	16b\	.	16dd\	.	.	.	.	.	.	.	.	.
.	.	.	16G/JJ	.	16g\JJ	.	16b\JJ	.	16dd\JJ	.	16ff#\Jk)	.	.	.	.	.	.	.
*	*	*	*Xrep	*	*	*	*Xrep	*	*Xrep	*	*	*	*	*	*	*	*	*
=45	=45	=45	=45	=45	=45	=45	=45	=45	=45	=45	=45	=45	=45	=45	=45	=45	=45	=45
8C/	x 3 1	.	16r	.	16r	.	16r	.	16r	.	(16ff#\LL	vir-	2r	.	2r	.	2r	.
*	*	*	*rep	*	*rep	*	*	*	*	*	*	*	*	*	*	*	*	*
.	.	.	16G/LL	.	16g\LL	.	16cc\LL	.	16ee\LL	.	16ee\JJ)	.	.	.	.	.	.	.
8r	.	.	16G/	.	16g\	.	16cc\	.	16ee\	.	8ee\	-go	.	.	.	.	.	.
.	.	.	16G/JJ	.	16g\JJ	.	16cc\JJ	.	16ee\JJ	.	.	.	.	.	.	.	.	.
*	*	*	*Xrep	*	*Xrep	*	*rep	*	*	*	*	*	*	*	*	*	*	*
8C/	x 3 1	.	16r	.	16r	.	16r	.	16r	.	4r	.	.	.	.	.	.	.
*	*	*	*rep	*	*rep	*	*	*	*rep	*	*	*	*	*	*	*	*	*
.	.	.	16G/LL	.	16g\LL	.	16cc\LL	.	16ee\LL	.	.	.	.	.	.	.	.	.
8r	.	.	16G/	.	16g\	.	16cc\	.	16ee\	.	.	.	.	.	.	.	.	.
.	.	.	16G/JJ	.	16g\JJ	.	16cc\JJ	.	16ee\JJ	.	.	.	.	.	.	.	.	.
*	*	*	*Xrep	*	*Xrep	*	*Xrep	*	*Xrep	*	*	*	*	*	*	*	*	*
!LO:LB:g=original	!	!	!	!	!LO:LB:g=original	!	!	!	!	!	!	!	!	!	!	!	!	!
=46	=46	=46	=46	=46	=46	=46	=46	=46	=46	=46	=46	=46	=46	=46	=46	=46	=46	=46
8G\	x 5 3	.	8G/	.	8g\	.	8b\	.	8dd\	.	8dd\	Gau-	2r	.	2r	.	2r	.
8r	.	.	8r	.	8r	.	8r	.	8r	.	(32dd\LLL	-de	.	.	.	.	.	.
.	.	.	.	.	.	.	.	.	.	.	32ee\)	.	.	.	.	.	.	.
.	.	.	.	.	.	.	.	.	.	.	(32dd\	.	.	.	.	.	.	.
.	.	.	.	.	.	.	.	.	.	.	32cc\JJJ)	.	.	.	.	.	.	.
8G\	x 5 3	.	8G/	.	8g\	.	8b\	.	8dd\	.	8dd\	vir-	.	.	.	.	.	.
8r	.	.	8r	.	8r	.	8r	.	8r	.	(32dd\LLL	-go	.	.	.	.	.	.
.	.	.	.	.	.	.	.	.	.	.	32b\	.	.	.	.	.	.	.
.	.	.	.	.	.	.	.	.	.	.	(32cc\	.	.	.	.	.	.	.
.	.	.	.	.	.	.	.	.	.	.	32cc#X\JJJ))	.	.	.	.	.	.	.
!	!	!	!	!	!	!	!LO:LB:g=original	!	!	!	!LO:LB:g=original	!	!	!	!	!	!	!
=47	=47	=47	=47	=47	=47	=47	=47	=47	=47	=47	=47	=47	=47	=47	=47	=47	=47	=47
4G\	x 5 3	.	4G/	.	4g\	.	4b\	.	8dd\L	.	8dd\L	glo-	2r	.	2r	.	2r	.
.	.	.	.	.	.	.	.	.	16gg\L	.	(16bb\L	-ri-	.	.	.	.	.	.
.	.	.	.	.	.	.	.	.	16ff#\JJ	.	16aa\JJ)	.	.	.	.	.	.	.
4r	.	.	4r	.	4r	.	4r	.	16ee\LL	.	(16gg\LL	-o-	.	.	.	.	.	.
.	.	.	.	.	.	.	.	.	16dd\	.	16ff#\JJ)	.	.	.	.	.	.	.
.	.	.	.	.	.	.	.	.	16cc\	.	(16ee\LL	-sa	.	.	.	.	.	.
.	.	.	.	.	.	.	.	.	16b\JJ	.	16dd\JJ)	.	.	.	.	.	.	.
=48	=48	=48	=48	=48	=48	=48	=48	=48	=48	=48	=48	=48	=48	=48	=48	=48	=48	=48
8D\	x 7_ 5_	.	8D/	.	8d\	.	8a\	.	8cc\	.	8cc\	-Gau-	2r	.	2r	.	2r	.
8r	.	.	8r	.	8r	.	8r	.	8r	.	(32cc\LLL	-de	.	.	.	.	.	.
.	.	.	.	.	.	.	.	.	.	.	32dd\)	.	.	.	.	.	.	.
.	.	.	.	.	.	.	.	.	.	.	(32cc\	.	.	.	.	.	.	.
.	.	.	.	.	.	.	.	.	.	.	32b\JJJ)	.	.	.	.	.	.	.
8D\	.	.	8D/	.	8d\	.	8a\	.	8cc\	.	8cc'\	vir-	.	.	.	.	.	.
8r	.	.	8r	.	8r	.	8r	.	8r	.	(32cc\LLL	-go	.	.	.	.	.	.
.	.	.	.	.	.	.	.	.	.	.	32a\)	.	.	.	.	.	.	.
.	.	.	.	.	.	.	.	.	.	.	(32b-X\	.	.	.	.	.	.	.
.	.	.	.	.	.	.	.	.	.	.	32bn\JJJ)	.	.	.	.	.	.	.
=49	=49	=49	=49	=49	=49	=49	=49	=49	=49	=49	=49	=49	=49	=49	=49	=49	=49	=49
4D\	.	.	8D/	.	8d\	.	8a\	.	8cc\L	.	(8cc\L	vir-	2r	.	2r	.	2r	.
.	.	.	8r	.	8r	.	8r	.	16ff#\L	.	16aa\L	.	.	.	.	.	.	.
.	.	.	.	.	.	.	.	.	16ee\JJ	.	16gg\JJ)	.	.	.	.	.	.	.
4r	x x x	.	4r	.	4r	.	4r	.	16dd\LL	.	(16ff#\LL	-go	.	.	.	.	.	.
.	.	.	.	.	.	.	.	.	16cc\	.	16ee\)	.	.	.	.	.	.	.
.	.	.	.	.	.	.	.	.	16b\	.	(16dd\	.	.	.	.	.	.	.
.	.	.	.	.	.	.	.	.	16a\JJ	.	16cc\JJ)	.	.	.	.	.	.	.
=50	=50	=50	=50	=50	=50	=50	=50	=50	=50	=50	=50	=50	=50	=50	=50	=50	=50	=50
4G\	.	.	4b\	.	4B\	.	4g/	.	4b\	.	(24b\LL	spe-	2r	.	2r	.	2r	.
.	.	.	.	.	.	.	.	.	.	.	24gg\)	.	.	.	.	.	.	.
.	.	.	.	.	.	.	.	.	.	.	24dd#X'\JJ	.	.	.	.	.	.	.
.	.	.	.	.	.	.	.	.	.	.	(24ee\LL	.	.	.	.	.	.	.
.	.	.	.	.	.	.	.	.	.	.	24b\)	.	.	.	.	.	.	.
.	.	.	.	.	.	.	.	.	.	.	24cc'\JJ	.	.	.	.	.	.	.
4r	.	.	4r	.	4r	.	4r	.	4r	.	(24a\LL	-ci-	.	.	.	.	.	.
.	.	.	.	.	.	.	.	.	.	.	24ee\	.	.	.	.	.	.	.
.	.	.	.	.	.	.	.	.	.	.	24dd#X\JJ)	.	.	.	.	.	.	.
!	!	!	!	!	!	!	!	!	!	!	!LO:LB:g=original	!	!	!	!	!	!	!
.	.	.	.	.	.	.	.	.	.	.	(32ff#\LLL	.	.	.	.	.	.	.
.	.	.	.	.	.	.	.	.	.	.	32ee\	.	.	.	.	.	.	.
.	.	.	.	.	.	.	.	.	.	.	64dd#\L	.	.	.	.	.	.	.
.	.	.	.	.	.	.	.	.	.	.	64cc\	.	.	.	.	.	.	.
.	.	.	.	.	.	.	.	.	.	.	64b'\	.	.	.	.	.	.	.
.	.	.	.	.	.	.	.	.	.	.	64a'\JJJJ)	.	.	.	.	.	.	.
=51	=51	=51	=51	=51	=51	=51	=51	=51	=51	=51	=51	=51	=51	=51	=51	=51	=51	=51
8r	.	.	16r	.	16r	.	16r	.	16r	.	(4gw\	-o-	2r	.	2r	.	2r	.
.	.	.	16D/LL	.	16d\LL	.	16B/LL	.	16g/LL	.	.	.	.	.	.	.	.	.
8G\L	.	.	16D/	.	16d\	.	16B/	.	16g/	.	.	.	.	.	.	.	.	.
.	.	.	16D/JJ	.	16d\JJ	.	16B/JJ	.	16g/JJ	.	.	.	.	.	.	.	.	.
8D\	x 6 4	.	8D/L	.	8d\L	.	16r	.	16b/LL	.	8b\L	.	.	.	.	.	.	.
.	.	.	.	.	.	.	16d/LL	.	16r	.	.	.	.	.	.	.	.	.
8D\J	x 5 3	.	8F#/J	.	8f#\J	.	16r	.	16a/JJ	.	8a\J	.	.	.	.	.	.	.
!	!	!	!	!	!	!	!	!	!LO:TX:t=P:problem=brak 16r	!	!	!	!	!	!	!	!	!
.	.	.	.	.	.	.	16c/JJ	.	16ryy	.	.	.	.	.	.	.	.	.
!	!	!	!LO:LB:g=original	!	!	!	!	!	!	!	!	!	!	!	!	!	!	!
=52	=52	=52	=52	=52	=52	=52	=52	=52	=52	=52	=52	=52	=52	=52	=52	=52	=52	=52
!	!	!	!	!	!	!	!	!LO:DY:b:Bi:t=for	!	!	!	!	!	!	!	!	!	!
4GG/	.	.	16G/LL	.	16g\LL	.	16B/LL	f	4g/	.	4g\)	-sa	2r	.	2r	.	2r	.
.	.	.	16G/	.	16g\	.	16d 16B/	.	.	.	.	.	.	.	.	.	.	.
.	.	.	16G/	.	16g\	.	16d 16B/	.	.	.	.	.	.	.	.	.	.	.
.	.	.	16G/JJ	.	16g\JJ	.	16dJJ 16B/	.	.	.	.	.	.	.	.	.	.	.
*	*	*	*	*	*	*	*rep	*	*	*	*	*	*	*	*	*	*	*
4r	.	.	16r	.	16r	.	16B/LL	.	8r	.	4r	.	.	.	.	.	.	.
*	*	*	*rep	*	*	*	*	*	*	*	*	*	*	*	*	*	*	*
.	.	.	16G/LL	.	16g\LL	.	16d 16B/	.	.	.	.	.	.	.	.	.	.	.
.	.	.	16G/	.	16g\	.	16d 16B/	.	8gg\	.	.	.	.	.	.	.	.	.
.	.	.	16G/JJ	.	16g\JJ	.	16dJJ 16B/	.	.	.	.	.	.	.	.	.	.	.
*	*	*	*Xrep	*	*	*	*Xrep	*	*	*	*	*	*	*	*	*	*	*
!	!	!	!	!	!	!	!	!	!LO:LB:g=original	!	!	!	!	!	!	!	!	!
=53	=53	=53	=53	=53	=53	=53	=53	=53	=53	=53	=53	=53	=53	=53	=53	=53	=53	=53
!	!	!LO:DY:b:rj:Bi:t=fo	!	!LO:DY:b:rj:Bi:t=fo	!	!LO:DY:b:rj:Bi:t=fo	!	!	!	!LO:DY:b:Bi:t=for	!LO:TX:a:t=10	!	!	!LO:DY:rj	!	!	!	!
8F#X\	x 67 5	f	16d\LL	f	16f#LL 16d\	f	16dLL 16c^>/	.	(16ff#\LL	f	2r	.	8D\	p	2r	.	2r	.
.	.	.	16d\	.	16f# 16d\	.	16d 16c/	.	16aa\	.	.	.	.	.	.	.	.	.
8r	.	.	16d\	.	16f# 16d\	.	16d 16c/	.	16ccc\	.	.	.	8r	.	.	.	.	.
.	.	.	16d\JJ	.	16f#JJ 16d\	.	16dJJ 16c/	.	16eee-X\JJ)	.	.	.	.	.	.	.	.	.
*	*	*	*tremolo	*	*	*	*rep	*	*	*	*	*	*	*	*	*	*	*
!	!	!	!LO:TX:t=P:tremolo-dots:problem	!	!	!	!	!	!	!	!	!	!	!	!	!	!	!
8F#\	.	.	16d\LL	.	16f#LL 16d\	.	16dLL 16c^>/	.	8ddd\L	.	.	.	8D\	.	.	.	.	.
.	.	.	16d\	.	16f# 16d\	.	16d 16c/	.	.	.	.	.	.	.	.	.	.	.
8r	.	.	16d\	.	16f# 16d\	.	16d 16c/	.	8ff#W\J	.	.	.	8r	.	.	.	.	.
.	.	.	16d\JJ	.	16f#JJ 16d\	.	16dJJ 16c/	.	.	.	.	.	.	.	.	.	.	.
*	*	*	*Xtremolo	*	*	*	*Xrep	*	*	*	*	*	*	*	*	*	*	*
!	!	!	!	!	!LO:LB:g=original	!	!	!	!	!	!	!	!	!	!	!	!	!
=54	=54	=54	=54	=54	=54	=54	=54	=54	=54	=54	=54	=54	=54	=54	=54	=54	=54	=54
!	!	!	!	!	!	!LO:DY:b:Bi:t=p.	!	!	!	!	!	!	!	!	!	!	!	!
8G\	x x 3	.	16r	p	16r	p	16B/LL	.	4gg\	.	2r	.	8G\	.	2r	.	2r	.
.	.	.	16G/LL	.	16g\LL	.	16d 16B/	.	.	.	.	.	.	.	.	.	.	.
8r	.	.	16G/	.	16g\	.	16d 16B/	.	.	.	.	.	8r	.	.	.	.	.
.	.	.	16G/JJ	.	16g\JJ	.	16dJJ 16B/	.	.	.	.	.	.	.	.	.	.	.
*	*	*	*	*	*	*	*rep	*	*	*	*	*	*	*	*	*	*	*
8G\	x x 3	.	16r	.	16r	.	16B/LL	.	8r	.	.	.	8GG/	.	.	.	.	.
*	*	*	*rep	*	*rep	*	*	*	*	*	*	*	*	*	*	*	*	*
.	.	.	16G/LL	.	16g\LL	.	16d 16B/	.	.	.	.	.	.	.	.	.	.	.
8r	.	.	16G/	.	16g\	.	16d 16B/	.	8gg\	.	.	.	8r	.	.	.	.	.
.	.	.	16G/JJ	.	16g\JJ	.	16dJJ 16B/	.	.	.	.	.	.	.	.	.	.	.
*	*	*	*Xrep	*	*Xrep	*	*Xrep	*	*	*	*	*	*	*	*	*	*	*
!LO:LB:g=original	!	!	!	!	!	!	!	!	!	!	!	!	!	!	!	!	!	!
=55	=55	=55	=55	=55	=55	=55	=55	=55	=55	=55	=55	=55	=55	=55	=55	=55	=55	=55
*	*	*	*tremolo	*	*	*	*	*	*	*	*	*	*	*	*	*	*	*
!	!	!	!LO:TX:t=P:tremolo-dots:problem	!LO:DY:b:Bi:t=fo	!	!LO:DY:b:Bi:t=for	!	!	!	!	!	!	!	!	!	!	!	!
8D\	x 7 5	.	16d\LL	f	16f#LL 16d\	f	16dLL 16c/	.	16ff#\LL	.	2r	.	8D\	.	2r	.	2r	.
.	.	.	16d\	.	16f# 16d\	.	16d 16c/	.	16aa\	.	.	.	.	.	.	.	.	.
8r	.	.	16d\	.	16f# 16d\	.	16d 16c/	.	16ccc\	.	.	.	8r	.	.	.	.	.
.	.	.	16d\JJ	.	16f#JJ 16d\	.	16dJJ 16c/	.	16eeen\JJ	.	.	.	.	.	.	.	.	.
!	!	!	!LO:TX:t=P:tremolo-dots:problem	!	!	!	!	!	!	!	!	!	!	!	!	!	!	!
*	*	*	*	*	*rep	*	*rep	*	*	*	*	*	*	*	*	*	*	*
8D\	x 7 5	.	16d\LL	.	16f#LL 16d\	.	16dLL 16c/	.	8ddd\L	.	.	.	8D\	.	.	.	.	.
.	.	.	16d\	.	16f# 16d\	.	16d 16c/	.	.	.	.	.	.	.	.	.	.	.
8r	.	.	16d\	.	16f# 16d\	.	16d 16c/	.	8ff#\J	.	.	.	8r	.	.	.	.	.
.	.	.	16d\JJ	.	16f#JJ 16d\	.	16dJJ 16c/	.	.	.	.	.	.	.	.	.	.	.
*	*	*	*Xtremolo	*	*Xrep	*	*Xrep	*	*	*	*	*	*	*	*	*	*	*
!	!	!	!	!	!	!	!LO:LB:g=original	!	!	!	!	!	!LO:LB:g=original	!	!	!	!	!
=56	=56	=56	=56	=56	=56	=56	=56	=56	=56	=56	=56	=56	=56	=56	=56	=56	=56	=56
!	!	!	!	!	!	!LO:DY:b:Bi:t=for	!	!	!	!	!	!	!	!	!	!	!	!
8GG/	x x 3	.	8B\	.	8g 8B\	f	8g/	.	8gg\	.	2r	.	8GG/	.	2r	.	2r	.
!	!	!	!	!	!	!	!	!LO:DY:b:Bi:t=fo	!	!	!	!	!	!	!	!	!	!
16r	.	.	16r	.	16r	.	16r	f	16r	.	.	.	16r	.	.	.	.	.
!	!	!	!	!	!LO:TX:t=P:problem=kasownik dopisany ołówkiem	!	!	!	!	!LO:DY:b:Bi:t=ffor	!	!	!	!LO:DY:b:Bi:t=for	!	!	!	!
!	!	!LO:DY:b:Bi:t=for	!	!LO:HP:a	!	!	!	!	!	!	!	!	!	!	!	!	!	!
16G\	x 3 1	f	16G\	>	16f# 16G\	.	16dd 16g\	.	16bb 16dd\	ff	.	.	16G'\	f	.	.	.	.
!	!	!	!	!	!	!LO:HP:a	!	!	!	!	!	!	!	!LO:HP:a	!	!	!	!
8F#'\L	x 4_ 1_	.	8G/L	.	8f#L 8G\	>	8ddL 8g\	.	8bbL 8dd\	.	.	.	8F#'\L	>	.	.	.	.
16F#'\L	.	.	16G/L	.	16f#L 16G\	.	16ddL 16g\	.	16bbL 16dd\	.	.	.	16F#'\L	]]	.	.	.	.
16F#'\JJ	.	.	16G/JJ	]]	16f#JJ 16G\	]]	16ddJJ 16g\	.	16bbJJ 16dd\	.	.	.	16F#'\JJ	.	.	.	.	.
=57	=57	=57	=57	=57	=57	=57	=57	=57	=57	=57	=57	=57	=57	=57	=57	=57	=57	=57
16.E\LL	x 6 4	.	16.c\L	.	16.eL 16.c\	.	16cc\LL	.	16ccc\LL	.	2r	.	16.E\LL	.	2r	.	2r	.
.	.	.	.	.	.	.	16dd\J	.	16ddd\J	.	.	.	.	.	.	.	.	.
32D\JJk	x 8 6	.	32B\Jk	.	32dJk 32B\	.	.	.	.	.	.	.	32D\JJK	.	.	.	.	.
!LO:TX:t=P:problem=nieczytelny zapis bc	!	!	!	!	!	!	!	!	!	!	!	!	!	!	!	!	!	!
8C\	x 10 8	.	8c\	.	8c\	.	8ee\J	.	8eee\J	.	.	.	8C\	.	.	.	.	.
.	.	.	.	.	.	.	.	.	.	.	.	.	.	.	.	.	.	.
4r	.	.	4r	.	4r	.	4r	.	32r	.	.	.	4r	.	.	.	.	.
.	.	.	.	.	.	.	.	.	32ddd\LLL	.	.	.	.	.	.	.	.	.
.	.	.	.	.	.	.	.	.	32ccc\	.	.	.	.	.	.	.	.	.
.	.	.	.	.	.	.	.	.	32bb\JJJ	.	.	.	.	.	.	.	.	.
.	.	.	.	.	.	.	.	.	16ccc\LL	.	.	.	.	.	.	.	.	.
.	.	.	.	.	.	.	.	.	16aa\JJ	.	.	.	.	.	.	.	.	.
=58	=58	=58	=58	=58	=58	=58	=58	=58	=58	=58	=58	=58	=58	=58	=58	=58	=58	=58
*	*	*	*	*	*	*	*	*	*	*	*	*	*	*^	*	*	*	*
!	!	!LO:DY:b:Bi:t=for	!	!	!	!	!	!LO:DY:b:rj:Bi:t=for	!	!	!	!	!	!LO:HP:a	!LO:DY:b:rj:Bi:t=for	!	!LO:DY:b:rj:Bi:t=fo	!	!LO:DY:b:rj:Bi:t=fo
8.D\L	x 7_ 5_	f	8.d\L	.	8.aL 8.d\	.	8.ccL 8.d/	f	8.ff#L 8.a^\	.	2r	.	8.D\L	>	f	8.d/L	f	8.a\L	f
16D\Jk	.	.	16d\Jk	.	16aJk 16d\	.	16ccJk 16d/	.	16ff#Jk 16a\	.	.	.	16D\Jk	.	.	16d/Jk	.	16a\Jk	.
!	!	!	!	!	!	!	!LO:N:n=2:vis=8	!	!	!	!	!	!	!	!	!	!	!	!
8D\L	.	.	8.d\L	.	8.aL 8.d\	.	8.ccL 8.d/	.	16ff#\LL	.	.	.	8D\L	.	.	8.d/L	.	8.a\L	.
.	.	.	.	.	.	.	.	.	32gg\L	.	.	.	.	.	.	.	.	.	.
.	.	.	.	.	.	.	.	.	32ff#\JJJ	.	.	.	.	.	.	.	.	.	.
16E\L	.	.	.	.	.	.	.	.	16ee\LL	.	.	.	16E\L	.	.	.	.	.	.
16F#\JJ	.	.	16d\Jk	.	16aJk 16d\	.	16ccJk 16d/	.	16ff#\JJ	.	.	.	16F#\JJ	]	.	16d/Jk	.	16a\Jk	.
*	*	*	*	*	*	*	*	*	*	*	*	*	*	*v	*v	*	*	*	*
=59	=59	=59	=59	=59	=59	=59	=59	=59	=59	=59	=59	=59	=59	=59	=59	=59	=59	=59
!LO:N:vis=4	!	!	!	!	!	!	!	!	!	!	!	!	!	!	!	!	!	!
8G\	x x 3	.	8.B\L	.	8.gL 8.B\	.	8.bL 8.d/	.	8b\	.	2r	.	8G\	.	4g\	.	4b\	.
16r	.	.	.	.	.	.	.	.	16r	.	.	.	16r	.	.	.	.	.
16G\	x 3 1	.	16B\Jk	.	16gJk 16B\	.	16g/Jk	.	16b\	.	.	.	16G\	.	.	.	.	.
8F#\L	x 4_ 2_	.	8.G/L	.	8.g\L	.	8f#L 8G/	.	8bW\L	.	.	.	8F#\L	.	4r	.	4r	.
16F#\L	.	.	.	.	.	.	8f#J 8G/	.	16a\L	.	.	.	16F#\L	.	.	.	.	.
16F#\JJ	.	.	16G/Jk	.	16g\Jk	.	.	.	16b\JJ	.	.	.	16F#\JJ	.	.	.	.	.
!	!	!	!LO:LB:g=original	!	!	!	!	!	!LO:LB:g=original	!	!	!	!	!	!	!	!	!
=60	=60	=60	=60	=60	=60	=60	=60	=60	=60	=60	=60	=60	=60	=60	=60	=60	=60	=60
!	!	!	!	!	!	!	!	!	!	!	!	!	!	!	!LO:TX:a:t=1	!	!LO:TX:a:t=1	!
16E\LL	x 6 4	.	16.C/LL	.	16.c\LL	.	16eLL 16G/	.	16cc\LL	.	2r	.	16.E\LL	.	2r	.	2r	.
16D\J	x 8 6	.	.	.	.	.	16dJJ 16G/	.	16dd\J	.	.	.	.	.	.	.	.	.
.	.	.	32D/JJk	.	32d\JJk	.	.	.	.	.	.	.	32D\JJK	.	.	.	.	.
8C\J	x 10 8	.	8E/	.	8e\	.	8.c/	.	8ee\J	.	.	.	8C\	.	.	.	.	.
4r	.	.	4r	.	4r	.	.	.	32r	.	.	.	4r	.	.	.	.	.
.	.	.	.	.	.	.	.	.	32dd\LLL	.	.	.	.	.	.	.	.	.
.	.	.	.	.	.	.	8.r	.	32cc\	.	.	.	.	.	.	.	.	.
.	.	.	.	.	.	.	.	.	32b\JJJ	.	.	.	.	.	.	.	.	.
.	.	.	.	.	.	.	.	.	16cc\LL	.	.	.	.	.	.	.	.	.
.	.	.	.	.	.	.	.	.	16a\JJ	.	.	.	.	.	.	.	.	.
!LO:LB:g=original	!	!	!	!	!LO:LB:g=original	!	!	!	!	!	!	!	!	!	!	!	!LO:LB:g=original	!
=61	=61	=61	=61	=61	=61	=61	=61	=61	=61	=61	=61	=61	=61	=61	=61	=61	=61	=61
!	!	!	!	!	!LO:N:n=2:vis=8	!	!LO:N:n=2:vis=8	!	!	!	!	!	!	!	!	!	!	!LO:DY:b:Bi:t=for
8.D\L	x 7_ 5_	.	8.A/L	.	8.f#L 8.A\	.	8.dL 8.A/	.	8.f#L 8.A/	.	2r	.	8.D/L	.	8.d/L	.	8.a\L	f
16D\Jk	.	.	16A/Jk	.	16f#Jk 16A\	.	16dJk 16A/	.	16f#Jk 16A/	.	.	.	16DD/Jk	.	16d/Jk	.	16a\Jk	.
*	*	*	*	*	*	*	*rep	*	*	*	*	*	*	*	*	*	*	*
!	!	!	!	!	!	!	!LO:N:n=2:vis=8	!	!	!	!	!	!	!	!	!	!	!
8D\L	.	.	8.A/L	.	8.f#L 8.A\	.	8.dL 8.A/	.	(16f#/LL	.	.	.	8DD/L	.	8.d/L	.	8.a\L	.
.	.	.	.	.	.	.	.	.	32g/L	.	.	.	.	.	.	.	.	.
.	.	.	.	.	.	.	.	.	32f#/JJJ	.	.	.	.	.	.	.	.	.
16E\L	x x x	.	.	.	.	.	.	.	16e/LL	.	.	.	16EE/L	.	.	.	.	.
16F#\JJ	.	.	16A/Jk	.	16f#Jk 16A\	.	16dJk 16A/	.	16f#/JJ)	.	.	.	16FF#/JJ	.	16d/Jk	.	16a\Jk	.
*	*	*	*	*	*	*	*Xrep	*	*	*	*	*	*	*	*	*	*	*
=62	=62	=62	=62	=62	=62	=62	=62	=62	=62	=62	=62	=62	=62	=62	=62	=62	=62	=62
!LO:TX:t=P:problem=mixed beam	!	!	!	!	!	!	!	!	!	!	!	!	!LO:TX:t=P:problem=mixed beam	!	!	!	!	!
8G\L	x x 3	.	8G/L	.	8g\L	.	8B/L	.	8g/L	.	2r	.	8GG/L	.	8B/L	.	8g\L	.
8D\	.	.	8D/	.	8d\	.	8d/J	.	8b/J	.	.	.	8D\	.	8B/	.	8g\	.
!	!	!	!LO:SIC:v:s=8GG/J	!	!	!	!	!	!	!	!	!	!	!	!	!	!	!
8GG/J	.	.	8BB/J	.	8B\J	.	16B/LL	.	16g'/LL	.	.	.	8GG/J	.	8B/J	.	8g\J	.
.	.	.	.	.	.	.	16B/	.	(16d/	.	.	.	.	.	.	.	.	.
8r	.	.	8r	.	8r	.	16c/	.	16e/)	.	.	.	8r	.	8r	.	8r	.
.	.	.	.	.	.	.	16A/JJ	.	16f#'/JJ	.	.	.	.	.	.	.	.	.
!	!	!	!	!	!	!	!	!	!	!	!	!	!LO:LB:g=original	!	!	!	!	!
=63	=63	=63	=63	=63	=63	=63	=63	=63	=63	=63	=63	=63	=63	=63	=63	=63	=63	=63
!	!	!LO:DY:b:Bi:t=p.	!	!LO:DY:b:Bi:t=p.	!	!	!	!	!	!	!	!	!	!	!LO:TX:a:t=12	!	!LO:TX:a:t=12	!
4G\	x 63 1	p	4G/	p	4g 4G\	p	4d 4B-X/	.	4g 4B-X/	.	4g\	va-	4GG/	p	2r	.	2r	.
4r	.	.	4r	.	4r	.	4r	.	4r	.	8dd\	-le	4r	.	.	.	.	.
.	.	.	.	.	.	.	.	.	.	.	(16ee-X\LL	o	.	.	.	.	.	.
.	.	.	.	.	.	.	.	.	.	.	16dd\JJ)	.	.	.	.	.	.	.
=64	=64	=64	=64	=64	=64	=64	=64	=64	=64	=64	=64	=64	=64	=64	=64	=64	=64	=64
!	!	!LO:DY:b:Bi:t=for	!	!LO:DY:rj	!	!LO:DY:b:Bi:t=fo	!	!	!	!	!	!	!	!LO:DY:b:Bi:t=fo	!	!	!	!
8C/L	x 4 3	f	8C^>/L	f	8c^\L	f	8e-X/L	.	8f#X^/L	.	8f#/	val-	8C'/L	f	2r	.	2r	.
8BB-X/J	x 6 3	.	8B-X/J	.	8B-X\J	.	8d/J	.	8g/J	.	8g/	-de	8BB-X'/J	.	.	.	.	.
4r	.	.	4r	.	4r	.	4r	.	4r	.	4r	.	4r	.	.	.	.	.
!	!	!	!	!	!	!	!LO:LB:g=original	!	!	!	!	!	!	!	!	!	!	!
=65	=65	=65	=65	=65	=65	=65	=65	=65	=65	=65	=65	=65	=65	=65	=65	=65	=65	=65
!	!	!LO:DY:b:Bi:t=p.	!	!	!	!LO:DY:b:Bi:t=p.	!	!	!	!LO:DY:b:Bi:t=fo	!	!	!	!LO:DY:b:Bi:t=p.	!	!	!	!
4A\	x 5 3	p	4A/	p	4A/	p	4en 4c/	.	4a/	f	4a\	va-	4AA/	p	2r	.	2r	.
4r	.	.	4r	.	4r	.	4r	.	4r	.	8ee\	-le	4r	.	.	.	.	.
.	.	.	.	.	.	.	.	.	.	.	(16ffn\LL	o	.	.	.	.	.	.
.	.	.	.	.	.	.	.	.	.	.	16ee\JJ)	.	.	.	.	.	.	.
=66	=66	=66	=66	=66	=66	=66	=66	=66	=66	=66	=66	=66	=66	=66	=66	=66	=66	=66
!	!	!LO:DY:b:rj:Bi:t=fo	!	!	!	!LO:DY:b:Bi:t=fo.	!	!	!	!LO:DY:b:Bi:t=for	!LO:SIC:v:s=8g#\	!	!	!	!	!	!	!
8D\L	x 4 2	f	8B/L	.	8B/L	f	8d/L	.	8g#X/L	f	8g\	val-	8D'/L	.	2r	.	2r	.
8C\J	x 6 3	.	8A/J	.	8A/J	.	8c/J	.	8a/J	.	8a\	-de	8C'/J	.	.	.	.	.
4r	.	.	4r	.	4r	.	4r	.	(16a\LL	.	4r	.	4r	.	.	.	.	.
.	.	.	.	.	.	.	.	.	16b\)	.	.	.	.	.	.	.	.	.
.	.	.	.	.	.	.	.	.	(16b\	.	.	.	.	.	.	.	.	.
.	.	.	.	.	.	.	.	.	16cc\JJ)	.	.	.	.	.	.	.	.	.
!	!	!	!	!	!	!	!	!	!	!	!LO:LB:g=original	!	!	!	!	!	!	!
=67	=67	=67	=67	=67	=67	=67	=67	=67	=67	=67	=67	=67	=67	=67	=67	=67	=67	=67
!	!	!	!	!	!	!	!	!	!	!	!	!	!LO:TX:t=8	!	!	!	!	!
!	!	!	!	!	!	!	!	!	!	!	!	!	!LO:N:vis=00	!	!	!	!	!
8D\	x 5_ 3_	.	16r	.	16r	.	16r	.	16r	.	(8.f#\L	va-	0r	.	2r	.	2r	.
.	.	.	16D/LL	.	16d\LL	.	16f#/LL	.	16a\LL	.	.	.	.	.	.	.	.	.
8r	.	.	16D/	.	16d\	.	16f#/	.	16a\	.	.	.	.	.	.	.	.	.
.	.	.	16D/JJ	.	16d\JJ	.	16f#/JJ	.	16a\JJ	.	16a\Jk)	.	.	.	.	.	.	.
*	*	*	*	*	*	*	*rep	*	*	*	*	*	*	*	*	*	*	*
8D\	.	.	16r	.	16r	.	16r	.	16r	.	(16dd\LL	-le	.	.	.	.	.	.
*	*	*	*rep	*	*rep	*	*	*	*rep	*	*	*	*	*	*	*	*	*
.	.	.	16D/LL	.	16d\LL	.	16f#/LL	.	16a\LL	.	16cc\	.	.	.	.	.	.	.
8r	.	.	16D/	.	16d\	.	16f#/	.	16a\	.	16b\	.	.	.	.	.	.	.
.	.	.	16D/JJ	.	16d\JJ	.	16f#/JJ	.	16a\JJ	.	16a\JJ)	.	.	.	.	.	.	.
*	*	*	*Xrep	*	*Xrep	*	*Xrep	*	*Xrep	*	*	*	*	*	*	*	*	*
=68	=68	=68	=68	=68	=68	=68	=68	=68	=68	=68	=68	=68	=68	=68	=68	=68	=68	=68
8G\	x x 3_	.	16r	.	16r	.	16r	.	16r	.	(8.g\L	o	.	.	2r	.	2r	.
*	*	*	*rep	*	*	*	*	*	*	*	*	*	*	*	*	*	*	*
.	.	.	16D/LL	.	16d\LL	.	16g/LL	.	16b\LL	.	.	.	.	.	.	.	.	.
8r	.	.	16D/	.	16d\	.	16g/	.	16b\	.	.	.	.	.	.	.	.	.
.	.	.	16D/JJ	.	16d\JJ	.	16g/JJ	.	16b\JJ	.	16dd\Jk)	.	.	.	.	.	.	.
*	*	*	*Xrep	*	*	*	*	*	*	*	*	*	*	*	*	*	*	*
!	!	!	!	!	!	!	!LO:N:vis=8	!	!	!	!	!	!	!	!	!	!	!
8G\	.	.	16r	.	16r	.	16r	.	16r	.	(16gg\LL	val-	.	.	.	.	.	.
*	*	*	*rep	*	*rep	*	*rep	*	*rep	*	*	*	*	*	*	*	*	*
.	.	.	16D/LL	.	16d\LL	.	16g/LL	.	16b\LL	.	16ff#\JJ)	.	.	.	.	.	.	.
8r	.	.	16D/	.	16d\	.	16g/	.	16b\	.	(16ee\LL	-de	.	.	.	.	.	.
.	.	.	16D/JJ	.	16d\JJ	.	16g/JJ	.	16b\JJ	.	16dd\JJ)	.	.	.	.	.	.	.
*	*	*	*Xrep	*	*Xrep	*	*Xrep	*	*Xrep	*	*	*	*	*	*	*	*	*
!LO:LB:g=original	!	!	!	!	!	!	!	!	!LO:LB:g=original	!	!	!	!	!	!	!	!	!
=69	=69	=69	=69	=69	=69	=69	=69	=69	=69	=69	=69	=69	=69	=69	=69	=69	=69	=69
4D\	x 7 5	.	4D/	.	4d\	.	4a\	.	4cc\	.	(16.dd\LL	de-	.	.	2r	.	2r	.
.	.	.	.	.	.	.	.	.	.	.	32ee\K	.	.	.	.	.	.	.
.	.	.	.	.	.	.	.	.	.	.	16.ff#\	.	.	.	.	.	.	.
.	.	.	.	.	.	.	.	.	.	.	32gg\JJk)	.	.	.	.	.	.	.
4r	.	.	4r	.	4r	.	4r	.	4r	.	(8.aa\L	.	.	.	.	.	.	.
.	.	.	.	.	.	.	.	.	.	.	16cc\Jk)	.	.	.	.	.	.	.
=70	=70	=70	=70	=70	=70	=70	=70	=70	=70	=70	=70	=70	=70	=70	=70	=70	=70	=70
4G\	x x 3	.	2r	.	2r	.	2r	.	4r	.	(8.b\L	-co-	.	.	2r	.	2r	.
.	.	.	.	.	.	.	.	.	.	.	16cc\Jk	.	.	.	.	.	.	.
4r	.	.	.	.	.	.	.	.	16r	.	8dd\)	-ra	.	.	.	.	.	.
!	!	!	!	!	!	!	!	!	!	!LO:DY:b:Bi:t=p.	!	!	!	!	!	!	!	!
.	.	.	.	.	.	.	.	.	32ee\LLL	p	.	.	.	.	.	.	.	.
.	.	.	.	.	.	.	.	.	32dd\JJJ	.	.	.	.	.	.	.	.	.
.	.	.	.	.	.	.	.	.	32cc/LLL	.	8r	.	.	.	.	.	.	.
.	.	.	.	.	.	.	.	.	32b/	.	.	.	.	.	.	.	.	.
.	.	.	.	.	.	.	.	.	32a/	.	.	.	.	.	.	.	.	.
.	.	.	.	.	.	.	.	.	32g/JJJ	.	.	.	.	.	.	.	.	.
=71	=71	=71	=71	=71	=71	=71	=71	=71	=71	=71	=71	=71	=71	=71	=71	=71	=71	=71
!	!	!	!	!	!	!	!	!	!	!	!	!	!LO:N:vis=00	!	!	!	!	!
8D\	x 7_ 5_	.	16r	.	16r	.	16r	.	16r	.	4f#\	et	0r	.	2r	.	2r	.
.	.	.	16D/LL	.	16d\LL	.	16f#/LL	.	16a\LL	.	.	.	.	.	.	.	.	.
8r	.	.	16D/	.	16d\	.	16f#/	.	16a\	.	.	.	.	.	.	.	.	.
.	.	.	16D/JJ	.	16d\JJ	.	16f#/JJ	.	16a\JJ	.	.	.	.	.	.	.	.	.
!	!	!	!	!	!LO:LB:g=original	!	!LO:N:vis=8	!	!LO:N:vis=8	!	!	!	!	!	!	!	!	!
8D\	.	.	16r	.	16r	.	16r	.	16r	.	(16dd\LL	pro	.	.	.	.	.	.
*	*	*	*rep	*	*	*	*rep	*	*rep	*	*	*	*	*	*	*	*	*
.	.	.	16D/LL	.	16d\LL	.	16f#/LL	.	16a\LL	.	16cc\	.	.	.	.	.	.	.
8r	.	.	16D/	.	16d\	.	16f#/	.	16a\	.	16b\	.	.	.	.	.	.	.
.	.	.	16D/JJ	.	16d\JJ	.	16f#/JJ	.	16a\JJ	.	16a\JJ)	.	.	.	.	.	.	.
*	*	*	*Xrep	*	*	*	*Xrep	*	*Xrep	*	*	*	*	*	*	*	*	*
!	!	!	!LO:LB:g=original	!	!	!	!	!	!	!	!	!	!	!	!	!	!	!
=72	=72	=72	=72	=72	=72	=72	=72	=72	=72	=72	=72	=72	=72	=72	=72	=72	=72	=72
8G\	x x 3_	.	16r	.	16r	.	16r	.	16r	.	4g\	no-	.	.	2r	.	2r	.
.	.	.	16D/LL	.	16d\LL	.	16g/LL	.	16b\LL	.	.	.	.	.	.	.	.	.
8r	.	.	16D/	.	16d\	.	16g/	.	16b\	.	.	.	.	.	.	.	.	.
.	.	.	16D/JJ	.	16d\JJ	.	16g/JJ	.	16b\JJ	.	.	.	.	.	.	.	.	.
8G\	.	.	16r	.	16r	.	16r	.	16r	.	(16gg\LL	-bis	.	.	.	.	.	.
.	.	.	16G/LL	.	16g\LL	.	16b\LL	.	16dd\LL	.	16ff#\	.	.	.	.	.	.	.
8r	.	.	16G/	.	16g\	.	16b\	.	16dd\	.	16ee\	.	.	.	.	.	.	.
.	.	.	16G/JJ	.	16g\JJ	.	16b\JJ	.	16dd\JJ	.	16dd\JJ)	.	.	.	.	.	.	.
!	!	!	!	!	!	!	!	!	!	!	!LO:LB:g=original	!	!	!	!	!	!	!
=73	=73	=73	=73	=73	=73	=73	=73	=73	=73	=73	=73	=73	=73	=73	=73	=73	=73	=73
!LO:TX:t=P:problem=wykreślone 4 takty	!	!LO:DY:rj	!	!	!	!	!	!	!	!	!	!	!	!	!	!	!	!
4C\	x 6 3	p	4G/	.	4g\	.	4cc\	.	4ee\	.	8ee\	chri-	.	.	2r	.	2r	.
.	.	.	.	.	.	.	.	.	.	.	16r	.	.	.	.	.	.	.
.	.	.	.	.	.	.	.	.	.	.	16ee\	-stum	.	.	.	.	.	.
4D\	x 5 3	.	4r	.	4r	.	4r	.	4r	.	8dd\	ex	.	.	.	.	.	.
.	.	.	.	.	.	.	.	.	.	.	16r	.	.	.	.	.	.	.
.	.	.	.	.	.	.	.	.	.	.	16f#/	o-	.	.	.	.	.	.
=74	=74	=74	=74	=74	=74	=74	=74	=74	=74	=74	=74	=74	=74	=74	=74	=74	=74	=74
!	!	!	!	!	!LO:TX:a:t=1	!	!	!LO:DY:rj	!	!	!	!	!	!	!	!	!	!
4GG/	x x 3	.	2r	.	2r	.	8B/L	p	4g/	.	4g/	-ra	.	.	2r	.	2r	.
.	.	.	.	.	.	.	8d 8B/	.	.	.	.	.	.	.	.	.	.	.
4r	.	.	.	.	.	.	8d 8B/	.	16r	.	4r	.	.	.	.	.	.	.
.	.	.	.	.	.	.	.	.	16b\	.	.	.	.	.	.	.	.	.
.	.	.	.	.	.	.	8dJ 8B/	.	32cc\LLL	.	.	.	.	.	.	.	.	.
.	.	.	.	.	.	.	.	.	32b\	.	.	.	.	.	.	.	.	.
.	.	.	.	.	.	.	.	.	32a\	.	.	.	.	.	.	.	.	.
.	.	.	.	.	.	.	.	.	32g\JJJ	.	.	.	.	.	.	.	.	.
!LO:LB:g=original	!	!	!	!	!	!	!LO:LB:g=original	!	!	!	!	!	!	!	!	!	!	!
=75	=75	=75	=75	=75	=75	=75	=75||:	=75	=75	=75	=75	=75	=75	=75	=75	=75	=75	=75
*	*	*	*	*^	*	*	*	*	*	*^	*	*	*	*	*	*	*	*
!	!	!	!	!	!LO:HP:a:t=Cres	!LO:TX:a:i:t=Dolce	!LO:DY:b:Bi:t=p.	!	!	!	!LO:HP:a	!LO:HP:b:t=Cres	!LO:TX:a:t=14	!	!	!LO:DY:b:rj:Bi:t=p.	!	!LO:DY:rj	!	!LO:DY:rj
8D\	x 7 5	.	16.f#\LL	p	<	16.F#/LL	p	8dL 8c/L	.	16.f#/LL	<	<	2r	.	8D\	p	8d/	p	8a\	p
.	.	.	32e\K	.	.	32G/K	.	.	.	32g/K	.	.	.	.	.	.	.	.	.	.
8r	.	.	16.d\	.	.	16.A/	.	8dJ 8c/	.	16.a/	.	.	.	.	8r	.	8r	.	8r	.
.	.	.	32c\JJk	.	.	32c/JJk	.	.	.	32b/JJk	.	.	.	.	.	.	.	.	.	.
8D\	x 7 5	.	16.B/LL	.	.	16.c\LL	.	8dL 8c/	.	16.cc\LL	.	.	.	.	8D\	.	8d/	.	8a\	.
.	.	.	32A/K	.	.	32d\K	.	.	.	32dd\K	.	.	.	.	.	.	.	.	.	.
8r	.	.	16.G/	.	.	16.e\	.	8dJ 8c/J	.	16.ee\	.	.	.	.	8r	.	8r	.	8r	.
.	.	.	32F#/JJk	.	.	32f#\JJk	.	.	.	32ff#\JJk	.	.	.	.	.	.	.	.	.	.
*	*	*	*	*v	*v	*	*	*	*	*	*	*	*	*	*	*	*	*	*	*
=76	=76	=76	=76	=76	=76	=76	=76	=76	=76	=76	-76	=76	=76	=76	=76	=76	=76	=76	=76
!	!	!	!	!	!	!	!	!	!	!	!	!	!	!LO:TX:t=P:problem=wykreślony takt	!	!	!	!	!
8G\	x x 3_	.	16.G/LL	.	16.g\LL	.	8dL 8B/L	.	16.gg\LL	.	.	2r	.	8GG/	.	8g\	.	8b\	.
.	.	.	32A/K	.	32a\K	.	.	.	32aa\K	.	.	.	.	.	.	.	.	.	.
8r	.	.	16.B/	.	16.b\	.	8dJ 8B/	.	16.bb\	.	.	.	.	8r	.	8r	.	8r	.
.	.	.	32c/JJk	.	32cc\JJk	.	.	.	32ccc\JJk	.	.	.	.	.	.	.	.	.	.
8G\	.	.	16.d\LL	.	16.dd\LL	.	8dL 8B/	.	16.ddd\LL	.	.	.	.	8GG/	.	8g\	.	8b\	.
.	.	.	32c#X\K	.	32cc#X\K	.	.	.	32ccc#X\K	.	.	.	.	.	.	.	.	.	.
8r	.	.	16.e\	.	16.ee\	.	8dJ 8B/J	.	16.eee\	.	.	.	.	8r	.	8r	.	8r	.
.	.	.	32d\JJk	.	32dd\JJk	.	.	.	32ddd\JJk	[[	.	.	.	.	.	.	.	.	.
*	*	*	*	*	*	*	*	*	*	*v	*v	*	*	*	*	*	*	*	*
!	!	!	!	!	!	!	!	!	!LO:LB:g=original	!	!	!	!	!	!	!	!	!
=77	=77	=77	=77	=77	=77	=77	=77	=77	=77	=77	=77	=77	=77	=77	=77	=77	=77	=77
!	!	!	!	!	!	!	!	!	!	!LO:HP:a	!	!	!	!	!	!	!	!
8D\	x 7_ 5_	.	8d\	.	8a 8d\	.	8d 8c/	.	24cccn\LL	>	2r	.	4D\	.	8d/	.	8a\	.
.	.	.	.	.	.	.	.	.	24bb\	.	.	.	.	.	.	.	.	.
.	.	.	.	.	.	.	.	.	24aa\JJ	.	.	.	.	.	.	.	.	.
8r	.	.	8r	.	8r	.	8r	.	24gg\LL	.	.	.	.	.	8r	.	8r	.
.	.	.	.	.	.	.	.	.	24ff#\	.	.	.	.	.	.	.	.	.
.	.	.	.	.	.	.	.	.	24ee\JJ	.	.	.	.	.	.	.	.	.
8D\	.	.	8d\	.	8a 8d\	.	8d 8c/	.	24dd\LL	.	.	.	4r	.	8d/	.	8a\	.
.	.	.	.	.	.	.	.	.	24ee\	.	.	.	.	.	.	.	.	.
.	.	.	.	.	.	.	.	.	24dd\JJ	.	.	.	.	.	.	.	.	.
8r	.	.	8r	.	8r	.	8r	.	24cc\LL	.	.	.	.	.	8r	.	8r	.
.	.	.	.	.	.	.	.	.	24b\	.	.	.	.	.	.	.	.	.
.	.	.	.	.	.	.	.	.	24a\JJ	.	.	.	.	.	.	.	.	.
=78	=78	=78	=78	=78	=78	=78	=78	=78	=78	=78	=78	=78	=78	=78	=78	=78	=78	=78
*	*	*	*	*	*	*	*^	*	*	*	*	*	*	*	*	*	*	*
*	*	*	*	*	*	*	*cue	*	*	*	*	*	*	*	*	*	*	*	*
!	!	!	!	!	!	!	!LO:SIC:v:s=8g/L	!	!	!LO:TX:t=P::problem=ołówkiem poprawiony takt&colon; 8g/L 8dd/ 8b/ 8g/J	!	!	!	!	!	!LO:TX:b:rj:t=Solo	!	!	!
4G\	x x 3	.	4B/	.	4g 4B\	.	8cc/L	4d 4B/	.	4g/	.	2r	.	8G\L	.	8B'/L	.	8g'\L	.
!	!	!	!	!	!	!	!LO:SIC:v:s=16b/L	!	!	!	!	!	!	!	!	!	!	!	!
.	.	.	.	.	.	.	16ee/L	.	.	.	]	.	.	8D\	.	8d'/	.	8dd'\	.
!	!	!	!	!	!	!	!LO:SIC:v:s=16b/JJ	!	!	!	!	!	!	!	!	!	!	!	!
.	.	.	.	.	.	.	16ee/JJ	.	.	.	.	.	.	.	.	.	.	.	.
!	!	!	!LO:TX:a:i:t=Dolce	!	!	!LO:SIC:v:s=8g/L	!	!	!	!	!	!	!	!	!	!	!	!	!
4r	.	.	4r	.	4r	.	8cc/L	4r	.	4r	.	.	.	8BB\	.	8B'/	.	8b'\	.
!	!	!	!	!	!	!	!LO:SIC:v:s=16b/L	!	!	!	!	!	!	!	!	!	!	!	!
.	.	.	.	.	.	.	16ee/L	.	.	.	.	.	.	8GG\J	.	8G'/J	.	8g'\J	.
!	!	!	!	!	!	!	!LO:SIC:v:s=16b/JJ	!	!	!	!	!	!	!	!	!	!	!	!
.	.	.	.	.	.	.	16ee/JJ	.	.	.	.	.	.	.	.	.	.	.	.
*	*	*	*	*	*	*	*Xcue	*	*	*	*	*	*	*	*	*	*	*	*
*	*	*	*	*	*	*	*v	*v	*	*	*	*	*	*	*	*	*	*	*
!	!	!	!	!	!LO:LB:g=original	!	!	!	!	!	!	!	!LO:LB:g=original	!	!LO:LB:g=original	!	!LO:LB:g=original	!
=79	=79	=79	=79	=79	=79	=79	=79:||	=79	=79	=79	=79	=79	=79	=79	=79	=79	=79	=79
!	!	!	!	!LO:DY:rj	!	!	!LO:TX:t=P:problem=t. 75-78 zapisane repetycją	!	!	!LO:HP:a	!	!	!	!	!	!	!	!
8D\	x 5_ 3_	.	16.f#\LL	p	16.F#/LL	p	8dyyL 8cyy/L	.	16.f#X/LL	<	2r	.	4DD/	.	8d/	.	8a\	.
.	.	.	32e\K	.	32G/K	.	.	.	32g/K	.	.	.	.	.	.	.	.	.
8r	.	.	16.d\	.	16.A/	.	8dyyJ 8cyy/	.	16.a/	.	.	.	.	.	8r	.	8r	.
.	.	.	32c\JJk	.	32B/JJk	.	.	.	32b/JJk	.	.	.	.	.	.	.	.	.
16r	.	.	16.B/LL	.	16.c\LL	.	8dyyL 8cyy/	.	16.cc\LL	.	.	.	4r	.	8d/	.	8a\	.
16D\LL	.	.	.	.	.	.	.	.	.	.	.	.	.	.	.	.	.	.
.	.	.	32A/K	.	32d\K	.	.	.	32dd\K	.	.	.	.	.	.	.	.	.
16F#\	.	.	16.G/	.	16.e\	.	8dyyJ 8cyy/J	.	16.ee\	.	.	.	.	.	8r	.	8r	.
16D\JJ	.	.	.	.	.	.	.	.	.	.	.	.	.	.	.	.	.	.
.	.	.	32F#/JJk	.	32f#\JJk	.	.	.	32ff#\JJk	.	.	.	.	.	.	.	.	.
!	!	!	!LO:LB:g=original	!	!	!	!	!	!	!	!	!	!	!	!	!	!	!
=80	=80	=80	=80	=80	=80	=80	=80	=80	=80	=80	=80	=80	=80	=80	=80	=80	=80	=80
4G\	x x 3_	.	16.G/LL	.	16.g\LL	.	8dyyL 8Byy/L	.	16.gg\LL	.	2r	.	8GG/	.	8g\	.	8b\	.
.	.	.	32A/K	.	32a\K	.	.	.	32aa\K	.	.	.	.	.	.	.	.	.
.	.	.	16.B/	.	16.b\	.	8dyyJ 8Byy/	.	16.bb\	.	.	.	8r	.	8r	.	8r	.
.	.	.	32c/JJk	.	32dd\JJk	.	.	.	32cccn\JJk	.	.	.	.	.	.	.	.	.
16r	.	.	16.d\LL	.	16.dd\LL	.	8dyyL 8Byy/	.	16.ddd\LL	.	.	.	8GG/	.	8g\	.	8b\	.
16G\LL	.	.	.	.	.	.	.	.	.	.	.	.	.	.	.	.	.	.
.	.	.	32c#X\K	.	32cc#X\K	.	.	.	32ccc#X\K	.	.	.	.	.	.	.	.	.
16B\	.	.	16.e\	.	16.ee\	.	8dyyJ 8Byy/J	.	16.eee\	.	.	.	8r	.	8r	.	8r	.
16G\JJ	.	.	.	.	.	.	.	.	.	.	.	.	.	.	.	.	.	.
.	.	.	32d\JJk	.	32dd\JJk	.	.	.	32ddd\JJk	[	.	.	.	.	.	.	.	.
=81	=81	=81	=81	=81	=81	=81	=81	=81	=81	=81	=81	=81	=81	=81	=81	=81	=81	=81
!	!	!	!	!	!	!	!	!	!:	!LO:HP:a	!	!	!	!	!	!	!	!
8D\	x 7_ 5_	.	8d\	.	8a 8d\	.	8dyy 8cyy/	.	24cccn\LL	>	2r	.	8D\	.	8d/	.	8a\	.
.	.	.	.	.	.	.	.	.	24bb\	.	.	.	.	.	.	.	.	.
.	.	.	.	.	.	.	.	.	24aa\JJ	.	.	.	.	.	.	.	.	.
8r	.	.	8r	.	8r	.	8ryy	.	24gg\LL	.	.	.	8r	.	8r	.	8r	.
.	.	.	.	.	.	.	.	.	24ff#\	.	.	.	.	.	.	.	.	.
.	.	.	.	.	.	.	.	.	24ee\JJ	.	.	.	.	.	.	.	.	.
8D\L	.	.	8d\	.	8a 8d\	.	8dyy 8cyy/	.	24dd\LL	.	.	.	8D\	.	8d/	.	8a\	.
.	.	.	.	.	.	.	.	.	24ee\	.	.	.	.	.	.	.	.	.
.	.	.	.	.	.	.	.	.	24dd\JJ	.	.	.	.	.	.	.	.	.
8D\J	.	.	8r	.	8r	.	8ryy	.	32cc#X\LLL	.	.	.	8r	.	8r	.	8r	.
.	.	.	.	.	.	.	.	.	32dd\	.	.	.	.	.	.	.	.	.
.	.	.	.	.	.	.	.	.	32ee\	.	.	.	.	.	.	.	.	.
.	.	.	.	.	.	.	.	.	32ff#\JJJ	.	.	.	.	.	.	.	.	.
=82	=82	=82	=82	=82	=82	=82	=82	=82	=82	=82	=82	=82	=82	=82	=82	=82	=82	=82
*	*	*	*	*	*	*	*^	*	*^	*	*	*	*	*	*	*	*	*
*	*	*	*	*	*	*	*cue	*	*	*cue	*	*	*	*	*	*	*	*	*	*
!	!	!	!	!	!	!	!	!	!	!LO:TX:a:t=Corno Solo	!	!	!	!	!	!	!	!	!	!
!	!	!	!	!	!	!	!LO:SIC:v:s=8gyy/L	!	!	!LO:TX:t=P:problem=na dopisanych pięcioliniach wpisana pomocniczo partia cor	!	!	!	!	!	!	!LO:TX:a:t=Solo	!	!LO:TX:a:t=Solo	!
4G\	x x 3	.	4B/	.	4g 4B\	.	8ccyy/L	4dyy 4Byy/	.	8b/L	4gg 4b\	.	2r	.	4G\	.	8g\L	.	8b\L	.
!	!	!	!	!	!	!	!LO:SIC:v:s=16byy/L	!	!	!	!	!	!	!	!	!	!	!	!	!
.	.	.	.	.	.	.	16eeyy/L	.	.	16dd/L	.	.	.	.	.	.	16b\L	.	16dd\L	.
!	!	!	!	!	!	!	!LO:SIC:v:s=16byy/JJ	!	!	!	!	!	!	!	!	!	!	!	!	!
.	.	.	.	.	.	.	16eeyy/JJ	.	.	16dd/JJ	.	.	.	.	.	.	16b\JJ	.	16dd\JJ	.
!	!	!	!	!	!	!	!LO:SIC:v:s=8gyy/L	!	!	!	!	!	!	!	!	!	!	!	!	!
4r	.	.	4r	.	4r	.	8ccyy/L	4ryy	.	8b/L	4r	]	.	.	4r	.	8g\L	.	8b\L	.
!	!	!	!	!	!	!	!LO:SIC:v:s=16byy/L	!	!	!	!	!	!	!	!	!	!	!	!	!
.	.	.	.	.	.	.	16eeyy/L	.	.	16dd/L	.	.	.	.	.	.	16b\L	.	16dd\L	.
!	!	!	!	!	!	!	!LO:SIC:v:s=16byy/JJ	!	!	!	!	!	!	!	!	!	!	!	!	!
.	.	.	.	.	.	.	16eeyy/JJ	.	.	16dd/JJ	.	.	.	.	.	.	16b\JJ	.	16dd\JJ	.
=83	=83	=83	=83	=83	=83	=83	=83	=83	=83	=83	=83	=83	=83	=83	=83	=83	=83	=83	=83	=83
!	!	!	!	!	!	!	!LO:SIC:v:s=4a/	!	!LO:DY:b:Bi:t=for	!	!	!	!	!	!LO:N:vis=8	!	!	!	!	!
4r	.	.	4r	.	4r	.	4dd/	4r	f	4cc/	4r	.	2r	.	4r	.	4a\	.	4cc\	.
!	!	!	!	!	!	!	!	!	!	!	!	!LO:DY:b:Bi:t=fo	!	!	!	!	!	!	!	!
8D\L	x 7_ 5_	.	8c/L	.	8dL 8c/	.	8ryy	8aL 8d/	.	8a/L	8ff#L 8a\	f	.	.	(8D\L	.	8d/L	.	8a\L	.
8D\J	.	.	8c/J	.	8dJ 8c/	.	8ryy	8aJ 8d/	.	8a/J	8ff#J 8a\	.	.	.	16E\L	.	8d/J	.	8a\J	.
.	.	.	.	.	.	.	.	.	.	.	.	.	.	.	16F#\JJ)	.	.	.	.	.
!	!	!	!	!	!	!	!	!	!	!LO:LB:g=original	!	!	!	!	!	!	!	!	!	!
=84	=84	=84	=84	=84	=84	=84	=84	=84	=84	=84	=84	=84	=84	=84	=84	=84	=84	=84	=84	=84
!	!	!	!	!	!	!	!LO:SIC:v:s=8g/L	!	!	!LO:TX:a:t=Corno Solo	!	!	!	!	!	!	!	!	!	!
4G\	x x 3	.	4B/	.	4d 4B/	.	8cc/L	4b 4d/	.	8b/L	4gg 4b\	.	2r	.	8G\	.	8g\L	.	8b\L	.
!	!	!	!	!	!	!	!LO:SIC:v:s=16ee/L	!	!	!	!	!	!	!	!	!	!	!	!	!
.	.	.	.	.	.	.	16ee/L	.	.	16dd/L	.	.	.	.	8r	.	16b\L	.	16dd\L	.
!	!	!	!	!	!	!	!LO:SIC:v:s=16b/JJ	!	!	!	!	!	!	!	!	!	!	!	!	!
.	.	.	.	.	.	.	16ee/JJ	.	.	16dd/JJ	.	.	.	.	.	.	16b\JJ	.	16dd\JJ	.
!	!	!	!	!	!	!	!LO:SIC:v:s=8g/L	!	!	!	!	!	!	!	!	!	!	!	!	!
4r	.	.	4r	.	4r	.	8cc/L	4r	.	8b/L	4r	.	.	.	4r	.	8g\L	.	8b\L	.
!	!	!	!	!	!	!	!LO:SIC:v:s=16b/L	!	!	!	!	!	!	!	!	!	!	!	!	!
.	.	.	.	.	.	.	16ee/L	.	.	16dd/L	.	.	.	.	.	.	16b\L	.	16dd\L	.
!	!	!	!	!	!	!	!LO:SIC:v:s=16b/JJ	!	!	!	!	!	!	!	!	!	!	!	!	!
.	.	.	.	.	.	.	16ee/JJ	.	.	16dd/JJ	.	.	.	.	.	.	16b\JJ	.	16dd\JJ	.
!LO:LB:g=original	!	!	!	!	!	!	!	!	!	!	!	!	!	!	!	!	!LO:LB:g=original	!	!LO:LB:g=original	!
=85	=85	=85	=85	=85	=85	=85	=85	=85	=85	=85	=85	=85	=85	=85	=85	=85	=85	=85	=85	=85
!	!	!	!	!LO:DY:b:Bi:t=fo	!	!LO:DY:b:Bi:t=fo	!LO:SIC:v:s=4a/	!	!	!	!	!	!	!	!	!	!	!	!	!
4r	.	.	4r	f	4r	f	4dd/	4r	.	4cc/	4r	.	2r	.	4r	.	4a\	.	4cc\	.
!	!	!	!	!	!	!	!	!	!LO:DY:b:Bi:t=for	!	!	!LO:DY:b:Bi:t=fo	!	!	!	!	!	!	!	!
8D\L	x 7_ 5_	.	8c\L	.	8dL 8c/	.	8ryy	8aL 8d/	f	8a/L	8ff#L 8a\	f	.	.	8D/L	.	8d/L	.	8a\L	.
16E\L	.	.	8c\J	.	8dJ 8c/	.	8ryy	8aJ 8d/	.	8a/J	8ff#J 8a\	.	.	.	8DD/J	.	8d/J	.	8a\J	.
*	*	*	*	*	*	*	*Xcue	*	*	*Xcue	*	*	*	*	*	*	*	*	*	*
16F#\JJ	.	.	.	.	.	.	.	.	.	.	.	.	.	.	.	.	.	.	.	.
*	*	*	*	*	*	*	*v	*v	*	*	*	*	*	*	*	*	*	*	*	*
*	*	*	*	*	*	*	*	*	*v	*v	*	*	*	*	*	*	*	*	*
=86	=86	=86	=86	=86	=86	=86	=86	=86	=86	=86	=86	=86	=86	=86	=86	=86	=86	=86
!	!	!	!	!	!	!	!	!	!	!LO:DY:b:Bi:t=for	!	!	!LO:TX:t=P:problem=mixed beam	!	!	!	!	!
8.G\L	x x 3_	.	4B/	.	4d 4B/	.	4b 4d/	.	4gg 4b\	f	2r	.	8GG/L	.	4B/	.	4g\	.
.	.	.	.	.	.	.	.	.	.	.	.	.	8G\	.	.	.	.	.
16G\K	.	.	.	.	.	.	.	.	.	.	.	.	.	.	.	.	.	.
8.D\	.	.	4B/	.	4d 4B/	.	4b 4d/	.	4gg 4b\	.	.	.	8D\	.	4B/	.	4g\	.
.	.	.	.	.	.	.	.	.	.	.	.	.	8BB\J	.	.	.	.	.
16BB\Jk	.	.	.	.	.	.	.	.	.	.	.	.	.	.	.	.	.	.
=87	=87	=87	=87	=87	=87	=87	=87	=87	=87	=87	=87	=87	=87	=87	=87	=87	=87	=87
4GG/	x x x	.	4B/	.	4d 4B/	.	4b 4d/	.	4gg 4b\	.	2r	.	4GG/	.	4B/	.	4g\	.
4r	.	.	4r	.	4r	.	4r	.	4r	.	.	.	4r	.	4r	.	4r	.
!	!	!	!	!	!	!	!	!	!	!	!	!	!	!	!	!	!LO:TX:b:t=Finis	!
==	==	==	==	==	==	==	==	==	==	==	==	==	==	==	==	==	==	==
*-	*-	*-	*-	*-	*-	*-	*-	*-	*-	*-	*-	*-	*-	*-	*-	*-	*-	*-
!!!system-decoration: [(g1)][(g2)][(g3)]g4
!!!RDF**kern: > = above
!!!RDF**kern: < = below
!!!ENC: Katarzyna Serwa
!!!END: 2022-03-11
!!!ENC: Marta Chmielewska
!!!END: 2020-08-08
